collierma/assist_pref_study/trial_data/joint_states.csv
timestamp,joint_1_pos,joint_2_pos,joint_3_pos,joint_4_pos,joint_5_pos,joint_6_pos,joint_7_pos,finger_joint_pos,left_inner_knuckle_joint_pos,left_inner_finger_joint_pos,right_outer_knuckle_joint_pos,right_inner_knuckle_joint_pos,right_inner_finger_joint_pos,joint_1_vel,joint_2_vel,joint_3_vel,joint_4_vel,joint_5_vel,joint_6_vel,joint_7_vel,finger_joint_vel,left_inner_knuckle_joint_vel,left_inner_finger_joint_vel,right_outer_knuckle_joint_vel,right_inner_knuckle_joint_vel,right_inner_finger_joint_vel,joint_1_eff,joint_2_eff,joint_3_eff,joint_4_eff,joint_5_eff,joint_6_eff,joint_7_eff,finger_joint_eff,left_inner_knuckle_joint_eff,left_inner_finger_joint_eff,right_outer_knuckle_joint_eff,right_inner_knuckle_joint_eff,right_inner_finger_joint_eff
1660320833700663566,0.000012,0.261907,3.141589,-2.268973,0.000010,0.959882,1.570827,0.003509,0.003509,-0.003509,0.003509,0.003509,-0.003509,0.000000,0.000000,0.000000,0.000000,0.000000,0.000000,0.000000,0.000000,0.000000,-0.000000,0.000000,0.000000,-0.000000,-0.282471,12.737747,0.894956,-6.135097,-1.119271,-3.310957,-0.366638,0.000000,0.000000,0.000000,0.000000,0.000000,0.000000
1660320833725668668,0.000012,0.261907,3.141589,-2.268973,0.000010,0.959882,1.570827,0.003509,0.003509,-0.003509,0.003509,0.003509,-0.003509,0.000000,0.000000,0.000000,0.000000,0.000000,0.000000,0.000000,0.000000,0.000000,-0.000000,0.000000,0.000000,-0.000000,-0.281993,12.759180,0.879550,-6.156604,-1.139860,-3.289875,-0.353768,0.000000,0.000000,0.000000,0.000000,0.000000,0.000000
1660320833750676631,0.000012,0.261907,3.141589,-2.268973,0.000010,0.959882,1.570827,0.003509,0.003509,-0.003509,0.003509,0.003509,-0.003509,0.000000,0.000000,0.000000,0.000000,0.000000,0.000000,0.000000,0.000000,0.000000,-0.000000,0.000000,0.000000,-0.000000,-0.298816,12.797762,0.876068,-6.112801,-1.129136,-3.291250,-0.364672,0.000000,0.000000,0.000000,0.000000,0.000000,0.000000
1660320833775724887,0.000012,0.261907,3.141589,-2.268973,0.000010,0.959882,1.570827,0.003509,0.003509,-0.003509,0.003509,0.003509,-0.003509,0.000000,0.000000,0.000000,0.000000,0.000000,0.000000,0.000000,0.000000,0.000000,-0.000000,0.000000,0.000000,-0.000000,-0.249147,12.750595,0.876012,-6.214854,-1.152688,-3.334026,-0.353153,0.000000,0.000000,0.000000,0.000000,0.000000,0.000000
1660320833800764083,0.000012,0.261907,3.141589,-2.268973,0.000010,0.959882,1.570827,0.003509,0.003509,-0.003509,0.003509,0.003509,-0.003509,0.000000,0.000000,0.000000,0.000000,0.000000,0.000000,0.000000,0.000000,0.000000,-0.000000,0.000000,0.000000,-0.000000,-0.249384,12.611081,0.919145,-6.117253,-1.153049,-3.263524,-0.359627,0.000000,0.000000,0.000000,0.000000,0.000000,0.000000
1660320833825719833,0.000012,0.261907,3.141589,-2.268973,0.000010,0.959882,1.570827,0.003509,0.003509,-0.003509,0.003509,0.003509,-0.003509,0.000000,0.000000,0.000000,0.000000,0.000000,0.000000,0.000000,0.000000,0.000000,-0.000000,0.000000,0.000000,-0.000000,-0.225605,12.668701,0.945461,-6.223948,-1.162378,-3.318088,-0.349727,0.000000,0.000000,0.000000,0.000000,0.000000,0.000000
1660320833850864171,0.000012,0.261907,3.141589,-2.268973,0.000010,0.959882,1.570827,0.003509,0.003509,-0.003509,0.003509,0.003509,-0.003509,0.000000,0.000000,0.000000,0.000000,0.000000,0.000000,0.000000,0.000000,0.000000,-0.000000,0.000000,0.000000,-0.000000,-0.210420,12.692677,0.932316,-6.121743,-1.132576,-3.301031,-0.349303,0.000000,0.000000,0.000000,0.000000,0.000000,0.000000
1660320833875797271,0.000012,0.261907,3.141589,-2.268973,0.000010,0.959882,1.570827,0.003509,0.003509,-0.003509,0.003509,0.003509,-0.003509,0.000000,0.000000,0.000000,0.000000,0.000000,0.000000,0.000000,0.000000,0.000000,-0.000000,0.000000,0.000000,-0.000000,-0.255519,12.706165,0.882480,-6.181216,-1.147020,-3.299491,-0.363194,0.000000,0.000000,0.000000,0.000000,0.000000,0.000000
1660320833900687694,0.000012,0.261907,3.141589,-2.268973,0.000010,0.959882,1.570827,0.003509,0.003509,-0.003509,0.003509,0.003509,-0.003509,0.000000,0.000000,0.000000,0.000000,0.000000,0.000000,0.000000,0.000000,0.000000,-0.000000,0.000000,0.000000,-0.000000,-0.339191,12.703901,0.869252,-6.031271,-1.139323,-3.267572,-0.367366,0.000000,0.000000,0.000000,0.000000,0.000000,0.000000
1660320833925709724,0.000012,0.261907,3.141589,-2.268973,0.000010,0.959882,1.570827,0.003509,0.003509,-0.003509,0.003509,0.003509,-0.003509,0.000000,0.000005,0.000000,0.000000,0.000000,0.000000,0.000000,0.000000,0.000000,-0.000000,0.000000,0.000000,-0.000000,-0.274828,12.855737,0.852705,-6.236753,-1.133464,-3.349507,-0.354646,0.000000,0.000000,0.000000,0.000000,0.000000,0.000000
1660320833950787305,0.000012,0.261907,3.141589,-2.268973,0.000010,0.959882,1.570827,0.003509,0.003509,-0.003509,0.003509,0.003509,-0.003509,0.000000,0.000005,0.000000,0.000000,0.000000,0.000000,0.000000,0.000000,0.000000,-0.000000,0.000000,0.000000,-0.000000,-0.232721,12.719493,0.908219,-6.090164,-1.147566,-3.277150,-0.350296,0.000000,0.000000,0.000000,0.000000,0.000000,0.000000
1660320833975744724,0.000012,0.261907,3.141589,-2.268973,0.000010,0.959882,1.570827,0.003509,0.003509,-0.003509,0.003509,0.003509,-0.003509,0.000000,0.000000,0.000000,0.000000,0.000000,0.000000,0.000000,0.000000,0.000000,-0.000000,0.000000,0.000000,-0.000000,-0.227792,12.674275,0.924092,-6.168487,-1.163142,-3.289726,-0.347110,0.000000,0.000000,0.000000,0.000000,0.000000,0.000000
1660320834000633716,0.000012,0.261907,3.141589,-2.268973,0.000010,0.959882,1.570827,0.003509,0.003509,-0.003509,0.003509,0.003509,-0.003509,0.000000,0.000000,0.000000,0.000000,0.000000,0.000000,0.000000,0.000000,0.000000,-0.000000,0.000000,0.000000,-0.000000,-0.244489,12.662811,0.932477,-6.117137,-1.148861,-3.287710,-0.343523,0.000000,0.000000,0.000000,0.000000,0.000000,0.000000
1660320834025681734,0.000012,0.261907,3.141589,-2.268973,0.000010,0.959882,1.570827,0.003509,0.003509,-0.003509,0.003509,0.003509,-0.003509,0.000000,-0.000005,0.000000,0.000000,0.000000,0.000000,0.000000,0.000000,0.000000,-0.000000,0.000000,0.000000,-0.000000,-0.249970,12.706367,0.906179,-6.209679,-1.144333,-3.300409,-0.357590,0.000000,0.000000,0.000000,0.000000,0.000000,0.000000
1660320834050724744,0.000012,0.261907,3.141589,-2.268973,0.000010,0.959882,1.570827,0.003509,0.003509,-0.003509,0.003509,0.003509,-0.003509,0.000000,-0.000005,0.000000,0.000000,0.000000,0.000000,0.000000,0.000000,0.000000,-0.000000,0.000000,0.000000,-0.000000,-0.246594,12.651645,0.929570,-6.109669,-1.144189,-3.273003,-0.358404,0.000000,0.000000,0.000000,0.000000,0.000000,0.000000
1660320834075805425,0.000012,0.261907,3.141589,-2.268973,0.000010,0.959882,1.570827,0.003509,0.003509,-0.003509,0.003509,0.003509,-0.003509,0.000000,0.000000,0.000000,0.000000,0.000000,0.000000,0.000000,0.000000,0.000000,-0.000000,0.000000,0.000000,-0.000000,-0.227466,12.716418,0.921928,-6.184537,-1.156033,-3.289959,-0.354384,0.000000,0.000000,0.000000,0.000000,0.000000,0.000000
1660320834100790023,0.000012,0.261907,3.141589,-2.268973,0.000010,0.959882,1.570827,0.003509,0.003509,-0.003509,0.003509,0.003509,-0.003509,0.000000,0.000000,0.000000,0.000000,0.000000,0.000000,0.000000,0.000000,0.000000,-0.000000,0.000000,0.000000,-0.000000,-0.255629,12.797559,0.912722,-6.120363,-1.136872,-3.286096,-0.364705,0.000000,0.000000,0.000000,0.000000,0.000000,0.000000
1660320834125760555,0.000012,0.261907,3.141589,-2.268973,0.000010,0.959882,1.570827,0.003509,0.003509,-0.003509,0.003509,0.003509,-0.003509,0.000000,0.000000,0.000000,0.000000,0.000000,0.000000,0.000000,0.000000,0.000000,-0.000000,0.000000,0.000000,-0.000000,-0.335824,12.750739,0.866487,-6.157401,-1.125781,-3.292630,-0.356537,0.000000,0.000000,0.000000,0.000000,0.000000,0.000000
1660320834150808811,0.000012,0.261907,3.141589,-2.268973,0.000010,0.959882,1.570827,0.003509,0.003509,-0.003509,0.003509,0.003509,-0.003509,0.000000,0.000000,0.000000,0.000000,0.000000,0.000000,0.000000,0.000000,0.000000,-0.000000,0.000000,0.000000,-0.000000,-0.334494,12.719336,0.868439,-6.098589,-1.139173,-3.288253,-0.358740,0.000000,0.000000,0.000000,0.000000,0.000000,0.000000
1660320834175738573,0.000012,0.261907,3.141589,-2.268973,0.000010,0.959882,1.570827,0.003509,0.003509,-0.003509,0.003509,0.003509,-0.003509,0.000000,0.000000,0.000000,0.000000,0.000000,0.000000,0.000000,0.000000,0.000000,-0.000000,0.000000,0.000000,-0.000000,-0.242641,12.720217,0.905334,-6.206750,-1.142065,-3.307308,-0.360776,0.000000,0.000000,0.000000,0.000000,0.000000,0.000000
1660320834200664281,0.000012,0.261907,3.141589,-2.268973,0.000010,0.959882,1.570827,0.003509,0.003509,-0.003509,0.003509,0.003509,-0.003509,0.000000,0.000000,0.000000,0.000000,0.000000,0.000000,0.000000,0.000000,0.000000,-0.000000,0.000000,0.000000,-0.000000,-0.211310,12.669162,0.928847,-6.164998,-1.137122,-3.273531,-0.350346,0.000000,0.000000,0.000000,0.000000,0.000000,0.000000
1660320834225659608,0.000012,0.261907,3.141589,-2.268973,0.000010,0.959882,1.570827,0.003509,0.003509,-0.003509,0.003509,0.003509,-0.003509,0.000000,0.000000,0.000000,0.000000,0.000000,0.000000,0.000000,0.000000,0.000000,-0.000000,0.000000,0.000000,-0.000000,-0.215477,12.649248,0.921556,-6.160364,-1.165214,-3.299319,-0.357227,0.000000,0.000000,0.000000,0.000000,0.000000,0.000000
1660320834250623226,0.000012,0.261907,3.141589,-2.268973,0.000010,0.959882,1.570827,0.003509,0.003509,-0.003509,0.003509,0.003509,-0.003509,0.000000,0.000000,0.000000,0.000000,0.000000,0.000000,0.000000,0.000000,0.000000,-0.000000,0.000000,0.000000,-0.000000,-0.240051,12.757450,0.915425,-6.149150,-1.146293,-3.313567,-0.354471,0.000000,0.000000,0.000000,0.000000,0.000000,0.000000
1660320834275719881,0.000012,0.261907,3.141589,-2.268973,0.000010,0.959882,1.570827,0.003509,0.003509,-0.003509,0.003509,0.003509,-0.003509,0.000000,0.000000,0.000000,0.000000,0.000000,0.000000,0.000000,0.000000,0.000000,-0.000000,0.000000,0.000000,-0.000000,-0.266733,12.805382,0.926643,-6.156417,-1.144217,-3.302396,-0.335228,0.000000,0.000000,0.000000,0.000000,0.000000,0.000000
1660320834300799846,0.000012,0.261907,3.141589,-2.268973,0.000010,0.959882,1.570827,0.003509,0.003509,-0.003509,0.003509,0.003509,-0.003509,0.000000,0.000000,0.000000,0.000000,0.000000,0.000000,0.000000,0.000000,0.000000,-0.000000,0.000000,0.000000,-0.000000,-0.270618,12.711563,0.895391,-6.118640,-1.135644,-3.288196,-0.362351,0.000000,0.000000,0.000000,0.000000,0.000000,0.000000
1660320834325769424,0.000012,0.261907,3.141589,-2.268973,0.000010,0.959882,1.570827,0.003509,0.003509,-0.003509,0.003509,0.003509,-0.003509,0.000000,0.000000,0.000000,0.000000,0.000000,0.000000,0.000000,0.000000,0.000000,-0.000000,0.000000,0.000000,-0.000000,-0.300895,12.750364,0.875146,-6.124906,-1.131129,-3.289563,-0.366843,0.000000,0.000000,0.000000,0.000000,0.000000,0.000000
1660320834350739002,0.000012,0.261907,3.141589,-2.268973,0.000010,0.959882,1.570827,0.003509,0.003509,-0.003509,0.003509,0.003509,-0.003509,0.000000,0.000000,0.000000,0.000000,0.000000,0.000000,0.000000,0.000000,0.000000,-0.000000,0.000000,0.000000,-0.000000,-0.313262,12.784850,0.878579,-6.164303,-1.131644,-3.322477,-0.341162,0.000000,0.000000,0.000000,0.000000,0.000000,0.000000
1660320834375703811,0.000012,0.261907,3.141589,-2.268973,0.000010,0.959882,1.570827,0.003509,0.003509,-0.003509,0.003509,0.003509,-0.003509,0.000000,0.000000,0.000000,0.000000,0.000000,0.000000,0.000000,0.000000,0.000000,-0.000000,0.000000,0.000000,-0.000000,-0.292754,12.699063,0.890126,-6.173050,-1.151538,-3.277815,-0.358400,0.000000,0.000000,0.000000,0.000000,0.000000,0.000000
1660320834400734424,0.000012,0.261907,3.141589,-2.268973,0.000010,0.959882,1.570827,0.003509,0.003509,-0.003509,0.003509,0.003509,-0.003509,0.000000,0.000000,0.000000,0.000000,0.000000,0.000000,0.000000,0.000000,0.000000,-0.000000,0.000000,0.000000,-0.000000,-0.194834,12.640072,0.921471,-6.159819,-1.148556,-3.311249,-0.353830,0.000000,0.000000,0.000000,0.000000,0.000000,0.000000
1660320834425749540,0.000012,0.261907,3.141589,-2.268973,0.000010,0.959882,1.570827,0.003509,0.003509,-0.003509,0.003509,0.003509,-0.003509,0.000000,0.000000,0.000000,0.000000,0.000000,0.000000,0.000000,0.000000,0.000000,-0.000000,0.000000,0.000000,-0.000000,-0.202352,12.709227,0.939316,-6.118644,-1.151199,-3.300540,-0.349467,0.000000,0.000000,0.000000,0.000000,0.000000,0.000000
1660320834450722455,0.000012,0.261907,3.141589,-2.268973,0.000010,0.959882,1.570827,0.003509,0.003509,-0.003509,0.003509,0.003509,-0.003509,0.000000,0.000000,0.000000,0.000000,0.000000,0.000000,0.000000,0.000000,0.000000,-0.000000,0.000000,0.000000,-0.000000,-0.213265,12.795404,0.911988,-6.219545,-1.167641,-3.333520,-0.338427,0.000000,0.000000,0.000000,0.000000,0.000000,0.000000
1660320834475713729,0.000012,0.261907,3.141589,-2.268973,0.000010,0.959882,1.570827,0.003509,0.003509,-0.003509,0.003509,0.003509,-0.003509,0.000000,0.000000,0.000000,0.000000,0.000000,0.000000,0.000000,0.000000,0.000000,-0.000000,0.000000,0.000000,-0.000000,-0.260956,12.734415,0.897965,-6.093588,-1.143548,-3.286584,-0.359836,0.000000,0.000000,0.000000,0.000000,0.000000,0.000000
1660320834500687837,0.000012,0.261907,3.141589,-2.268973,0.000010,0.959882,1.570827,0.003509,0.003509,-0.003509,0.003509,0.003509,-0.003509,0.000000,0.000000,0.000000,0.000000,0.000000,0.000000,0.000000,0.000000,0.000000,-0.000000,0.000000,0.000000,-0.000000,-0.272510,12.763070,0.880621,-6.129027,-1.125759,-3.317085,-0.359797,0.000000,0.000000,0.000000,0.000000,0.000000,0.000000
1660320834525752305,0.000012,0.261907,3.141589,-2.268973,0.000010,0.959882,1.570827,0.003509,0.003509,-0.003509,0.003509,0.003509,-0.003509,0.000000,0.000000,0.000000,0.000000,0.000000,0.000000,0.000000,0.000000,0.000000,-0.000000,0.000000,0.000000,-0.000000,-0.302058,12.815010,0.862904,-6.123451,-1.136081,-3.303375,-0.364716,0.000000,0.000000,0.000000,0.000000,0.000000,0.000000
1660320834550733804,0.000012,0.261907,3.141589,-2.268973,0.000010,0.959882,1.570827,0.003509,0.003509,-0.003509,0.003509,0.003509,-0.003509,0.000000,0.000000,0.000000,0.000000,0.000000,0.000000,0.000000,0.000000,0.000000,-0.000000,0.000000,0.000000,-0.000000,-0.295793,12.713125,0.900317,-6.162385,-1.139765,-3.307980,-0.335171,0.000000,0.000000,0.000000,0.000000,0.000000,0.000000
1660320834575716495,0.000012,0.261907,3.141589,-2.268973,0.000010,0.959882,1.570827,0.003509,0.003509,-0.003509,0.003509,0.003509,-0.003509,0.000000,0.000000,0.000000,0.000000,0.000000,0.000000,0.000000,0.000000,0.000000,-0.000000,0.000000,0.000000,-0.000000,-0.246053,12.606167,0.899784,-6.093008,-1.137641,-3.255111,-0.366148,0.000000,0.000000,0.000000,0.000000,0.000000,0.000000
1660320834600689172,0.000012,0.261907,3.141589,-2.268973,0.000010,0.959882,1.570827,0.003509,0.003509,-0.003509,0.003509,0.003509,-0.003509,0.000000,0.000000,0.000000,0.000000,0.000000,0.000000,0.000000,0.000000,0.000000,-0.000000,0.000000,0.000000,-0.000000,-0.253793,12.701884,0.904714,-6.260983,-1.143411,-3.320070,-0.330236,0.000000,0.000000,0.000000,0.000000,0.000000,0.000000
1660320834625720024,0.000012,0.261907,3.141589,-2.268973,0.000010,0.959882,1.570827,0.003509,0.003509,-0.003509,0.003509,0.003509,-0.003509,0.000000,0.000000,0.000000,0.000000,0.000000,0.000000,0.000000,0.000000,0.000000,-0.000000,0.000000,0.000000,-0.000000,-0.222413,12.664545,0.917588,-6.128439,-1.165014,-3.293477,-0.343140,0.000000,0.000000,0.000000,0.000000,0.000000,0.000000
1660320834650689840,0.000012,0.261907,3.141589,-2.268973,0.000010,0.959882,1.570827,0.003509,0.003509,-0.003509,0.003509,0.003509,-0.003509,0.000000,0.000000,0.000000,0.000000,0.000000,0.000000,0.000000,0.000000,0.000000,-0.000000,0.000000,0.000000,-0.000000,-0.233951,12.685297,0.906226,-6.166671,-1.136597,-3.308655,-0.361844,0.000000,0.000000,0.000000,0.000000,0.000000,0.000000
1660320834675626277,0.000012,0.261907,3.141589,-2.268973,0.000010,0.959882,1.570827,0.003509,0.003509,-0.003509,0.003509,0.003509,-0.003509,0.000000,0.000000,0.000000,0.000000,0.000000,0.000000,0.000000,0.000000,0.000000,-0.000000,0.000000,0.000000,-0.000000,-0.258727,12.727364,0.885383,-6.083965,-1.141228,-3.310655,-0.355257,0.000000,0.000000,0.000000,0.000000,0.000000,0.000000
1660320834700776815,0.000012,0.261907,3.141589,-2.268973,0.000010,0.959882,1.570827,0.003509,0.003509,-0.003509,0.003509,0.003509,-0.003509,0.000000,0.000005,0.000000,0.000000,0.000000,0.000000,0.000000,0.000000,0.000000,-0.000000,0.000000,0.000000,-0.000000,-0.301641,12.841952,0.865479,-6.162325,-1.143023,-3.303923,-0.369079,0.000000,0.000000,0.000000,0.000000,0.000000,0.000000
1660320834728800058,0.000012,0.261907,3.141589,-2.268973,0.000010,0.959882,1.570827,0.003509,0.003509,-0.003509,0.003509,0.003509,-0.003509,0.000000,0.000000,0.000000,0.000000,0.000000,0.000000,0.000000,0.000000,0.000000,-0.000000,0.000000,0.000000,-0.000000,-0.270321,12.660709,0.875194,-6.132169,-1.126335,-3.285242,-0.357828,0.000000,0.000000,0.000000,0.000000,0.000000,0.000000
1660320834750792503,0.000012,0.261907,3.141589,-2.268973,0.000010,0.959882,1.570827,0.003509,0.003509,-0.003509,0.003509,0.003509,-0.003509,0.000000,0.000000,0.000000,0.000000,0.000000,0.000000,0.000000,0.000000,0.000000,-0.000000,0.000000,0.000000,-0.000000,-0.270321,12.660709,0.875194,-6.132169,-1.126335,-3.285242,-0.357828,0.000000,0.000000,0.000000,0.000000,0.000000,0.000000
1660320834775717735,0.000012,0.261907,3.141589,-2.268973,0.000010,0.959882,1.570827,0.003509,0.003509,-0.003509,0.003509,0.003509,-0.003509,0.000000,0.000000,0.000000,0.000000,0.000000,0.000000,0.000000,0.000000,0.000000,-0.000000,0.000000,0.000000,-0.000000,-0.250493,12.692407,0.905465,-6.179919,-1.135869,-3.318170,-0.350042,0.000000,0.000000,0.000000,0.000000,0.000000,0.000000
1660320834800774574,0.000012,0.261907,3.141589,-2.268973,0.000010,0.959882,1.570827,0.003509,0.003509,-0.003509,0.003509,0.003509,-0.003509,0.000000,-0.000005,0.000000,0.000000,0.000000,0.000000,0.000000,0.000000,0.000000,-0.000000,0.000000,0.000000,-0.000000,-0.234104,12.691862,0.898033,-6.169616,-1.141877,-3.294359,-0.338021,0.000000,0.000000,0.000000,0.000000,0.000000,0.000000
1660320834825700759,0.000012,0.261907,3.141589,-2.268973,0.000010,0.959882,1.570827,0.003509,0.003509,-0.003509,0.003509,0.003509,-0.003509,0.000000,0.000000,0.000000,0.000000,0.000000,0.000000,0.000000,0.000000,0.000000,-0.000000,0.000000,0.000000,-0.000000,-0.216852,12.701207,0.907724,-6.245995,-1.144127,-3.312366,-0.350384,0.000000,0.000000,0.000000,0.000000,0.000000,0.000000
1660320834850623846,0.000012,0.261907,3.141589,-2.268973,0.000010,0.959882,1.570827,0.003509,0.003509,-0.003509,0.003509,0.003509,-0.003509,0.000000,0.000000,0.000000,0.000000,0.000000,0.000000,0.000000,0.000000,0.000000,-0.000000,0.000000,0.000000,-0.000000,-0.240442,12.571919,0.913625,-6.016562,-1.148208,-3.246018,-0.357864,0.000000,0.000000,0.000000,0.000000,0.000000,0.000000
1660320834875769615,0.000012,0.261907,3.141589,-2.268973,0.000010,0.959882,1.570827,0.003509,0.003509,-0.003509,0.003509,0.003509,-0.003509,0.000000,0.000005,0.000000,0.000000,0.000000,0.000000,0.000000,0.000000,0.000000,-0.000000,0.000000,0.000000,-0.000000,-0.277174,12.832649,0.883687,-6.297680,-1.130636,-3.334963,-0.345225,0.000000,0.000000,0.000000,0.000000,0.000000,0.000000
1660320834900751590,0.000012,0.261907,3.141589,-2.268973,0.000010,0.959882,1.570827,0.003509,0.003509,-0.003509,0.003509,0.003509,-0.003509,0.000000,0.000000,0.000000,0.000000,0.000000,0.000000,0.000000,0.000000,0.000000,-0.000000,0.000000,0.000000,-0.000000,-0.291492,12.757676,0.898762,-5.973539,-1.151606,-3.256917,-0.354854,0.000000,0.000000,0.000000,0.000000,0.000000,0.000000
1660320834925802469,0.000012,0.261907,3.141589,-2.268973,0.000010,0.959882,1.570827,0.003509,0.003509,-0.003509,0.003509,0.003509,-0.003509,0.000000,0.000000,0.000000,0.000000,0.000000,0.000000,0.000000,0.000000,0.000000,-0.000000,0.000000,0.000000,-0.000000,-0.285331,12.661975,0.879778,-6.233405,-1.151098,-3.309232,-0.348496,0.000000,0.000000,0.000000,0.000000,0.000000,0.000000
1660320834950771570,0.000012,0.261907,3.141589,-2.268973,0.000010,0.959882,1.570827,0.003509,0.003509,-0.003509,0.003509,0.003509,-0.003509,0.000000,0.000000,0.000000,0.000000,0.000000,0.000000,0.000000,0.000000,0.000000,-0.000000,0.000000,0.000000,-0.000000,-0.268446,12.791226,0.936230,-6.080340,-1.140484,-3.293643,-0.342743,0.000000,0.000000,0.000000,0.000000,0.000000,0.000000
1660320834975661039,0.000012,0.261907,3.141589,-2.268973,0.000010,0.959882,1.570827,0.003509,0.003509,-0.003509,0.003509,0.003509,-0.003509,0.000000,-0.000005,0.000000,0.000000,0.000000,0.000000,0.000000,0.000000,0.000000,-0.000000,0.000000,0.000000,-0.000000,-0.232820,12.699388,0.956368,-6.213495,-1.156779,-3.301824,-0.359592,0.000000,0.000000,0.000000,0.000000,0.000000,0.000000
1660320835000686645,0.000012,0.261907,3.141589,-2.268973,0.000010,0.959882,1.570827,0.003509,0.003509,-0.003509,0.003509,0.003509,-0.003509,0.000000,0.000000,0.000000,0.000000,0.000000,0.000000,0.000000,0.000000,0.000000,-0.000000,0.000000,0.000000,-0.000000,-0.258913,12.674907,0.871038,-6.057551,-1.140834,-3.272404,-0.355294,0.000000,0.000000,0.000000,0.000000,0.000000,0.000000
1660320835025705099,0.000012,0.261907,3.141589,-2.268973,0.000010,0.959882,1.570827,0.003509,0.003509,-0.003509,0.003509,0.003509,-0.003509,0.000000,0.000000,0.000000,0.000000,0.000000,0.000000,0.000000,0.000000,0.000000,-0.000000,0.000000,0.000000,-0.000000,-0.251699,12.712850,0.935805,-6.208051,-1.144571,-3.326673,-0.351886,0.000000,0.000000,0.000000,0.000000,0.000000,0.000000
1660320835050660371,0.000012,0.261907,3.141589,-2.268973,0.000010,0.959882,1.570827,0.003509,0.003509,-0.003509,0.003509,0.003509,-0.003509,0.000000,0.000000,0.000000,0.000000,0.000000,0.000000,0.000000,0.000000,0.000000,-0.000000,0.000000,0.000000,-0.000000,-0.265591,12.738029,0.861062,-6.162410,-1.142482,-3.305998,-0.355327,0.000000,0.000000,0.000000,0.000000,0.000000,0.000000
1660320835075632572,0.000012,0.261907,3.141589,-2.268973,0.000010,0.959882,1.570827,0.003509,0.003509,-0.003509,0.003509,0.003509,-0.003509,0.000000,0.000000,0.000000,0.000000,0.000000,0.000000,0.000000,0.000000,0.000000,-0.000000,0.000000,0.000000,-0.000000,-0.245120,12.702041,0.896165,-6.177876,-1.140472,-3.297238,-0.359168,0.000000,0.000000,0.000000,0.000000,0.000000,0.000000
1660320835100661039,0.000012,0.261907,3.141589,-2.268973,0.000010,0.959882,1.570827,0.003509,0.003509,-0.003509,0.003509,0.003509,-0.003509,0.000000,0.000000,0.000000,0.000000,0.000000,0.000000,0.000000,0.000000,0.000000,-0.000000,0.000000,0.000000,-0.000000,-0.236239,12.656529,0.909529,-6.111341,-1.148742,-3.280718,-0.357944,0.000000,0.000000,0.000000,0.000000,0.000000,0.000000
1660320835125757217,0.000012,0.261907,3.141589,-2.268973,0.000010,0.959882,1.570827,0.003509,0.003509,-0.003509,0.003509,0.003509,-0.003509,0.000000,0.000000,0.000000,0.000000,0.000000,0.000000,0.000000,0.000000,0.000000,-0.000000,0.000000,0.000000,-0.000000,-0.273515,12.859311,0.861229,-6.146662,-1.129846,-3.308095,-0.351521,0.000000,0.000000,0.000000,0.000000,0.000000,0.000000
1660320835150808095,0.000012,0.261907,3.141589,-2.268973,0.000010,0.959882,1.570827,0.003509,0.003509,-0.003509,0.003509,0.003509,-0.003509,0.000000,0.000000,0.000000,0.000000,0.000000,0.000000,0.000000,0.000000,0.000000,-0.000000,0.000000,0.000000,-0.000000,-0.270474,12.693995,0.885993,-6.153180,-1.150913,-3.306806,-0.359987,0.000000,0.000000,0.000000,0.000000,0.000000,0.000000
1660320835175771236,-0.000012,0.261902,3.141587,-2.268982,-0.000046,0.959885,1.570833,0.003509,0.003509,-0.003509,0.003509,0.003509,-0.003509,-0.000236,-0.000045,-0.000016,-0.000087,-0.000725,0.000029,0.000066,0.000000,0.000000,-0.000000,0.000000,0.000000,-0.000000,-0.240593,12.677052,0.863086,-6.022790,-1.122932,-3.289192,-0.364002,0.000000,0.000000,0.000000,0.000000,0.000000,0.000000
1660320835200737237,-0.000568,0.261693,3.141487,-2.269428,-0.000818,0.959942,1.571099,0.003509,0.003509,-0.003509,0.003509,0.003509,-0.003509,-0.040624,-0.015396,-0.006232,-0.025903,-0.049108,0.002030,0.024039,0.000000,0.000000,-0.000000,0.000000,0.000000,-0.000000,0.323831,12.950118,1.286956,-5.416951,-1.105067,-3.190931,-0.413845,0.000000,0.000000,0.000000,0.000000,0.000000,0.000000
1660320835225646734,-0.002085,0.260962,3.141143,-2.270608,-0.002850,0.960257,1.572355,0.003509,0.003509,-0.003509,0.003509,0.003509,-0.003509,-0.082754,-0.037814,-0.027010,-0.063139,-0.116564,0.024039,0.071720,0.000000,0.000000,-0.000000,0.000000,0.000000,-0.000000,1.313620,13.568202,1.955417,-5.768882,-1.205256,-3.430383,-0.481863,0.000000,0.000000,0.000000,0.000000,0.000000,0.000000
1660320835250714540,-0.004667,0.259875,3.140432,-2.272520,-0.006400,0.960958,1.574612,0.003509,0.003509,-0.003509,0.003509,0.003509,-0.003509,-0.119253,-0.054019,-0.035347,-0.084270,-0.166751,0.036612,0.105737,0.000000,0.000000,-0.000000,0.000000,0.000000,-0.000000,1.507243,13.411958,1.867826,-5.747977,-1.321409,-3.476511,-0.553681,0.000000,0.000000,0.000000,0.000000,0.000000,0.000000
1660320835275829315,-0.008077,0.258260,3.139470,-2.275103,-0.011343,0.962013,1.577711,0.003509,0.003509,-0.003509,0.003509,0.003509,-0.003509,-0.154496,-0.074007,-0.042405,-0.111664,-0.219859,0.040515,0.141657,0.000000,0.000000,-0.000000,0.000000,0.000000,-0.000000,0.726370,13.245413,1.533108,-5.397172,-1.315711,-3.365744,-0.563480,0.000000,0.000000,0.000000,0.000000,0.000000,0.000000
1660320835300788402,-0.012116,0.256218,3.138277,-2.278236,-0.017251,0.963209,1.581477,0.003509,0.003509,-0.003509,0.003509,0.003509,-0.003509,-0.173532,-0.081751,-0.051610,-0.133158,-0.258753,0.057426,0.156116,0.000000,0.000000,-0.000000,0.000000,0.000000,-0.000000,0.135543,13.291077,1.131714,-5.410530,-0.953477,-3.500926,-0.381503,0.000000,0.000000,0.000000,0.000000,0.000000,0.000000
1660320835325732469,-0.016716,0.253915,3.136887,-2.282006,-0.024324,0.964601,1.585753,0.003509,0.003509,-0.003509,0.003509,0.003509,-0.003509,-0.183666,-0.091781,-0.058341,-0.160708,-0.273879,0.054019,0.178264,0.000000,0.000000,-0.000000,0.000000,0.000000,-0.000000,0.495194,13.179681,1.305024,-4.775376,-0.991946,-3.354198,-0.256935,0.000000,0.000000,0.000000,0.000000,0.000000,0.000000
1660320835350720405,-0.021218,0.251462,3.135534,-2.285888,-0.031321,0.966164,1.590046,0.003509,0.003509,-0.003509,0.003509,0.003509,-0.003509,-0.191229,-0.103988,-0.060435,-0.162058,-0.294402,0.066444,0.171608,0.000000,0.000000,-0.000000,0.000000,0.000000,-0.000000,0.964694,13.352688,1.808367,-5.995031,-1.057227,-3.398011,-0.369063,0.000000,0.000000,0.000000,0.000000,0.000000,0.000000
1660320835375680446,-0.026133,0.248826,3.134077,-2.290120,-0.038882,0.967901,1.594644,0.003509,0.003509,-0.003509,0.003509,0.003509,-0.003509,-0.199670,-0.111820,-0.056450,-0.174213,-0.308992,0.072386,0.189258,0.000000,0.000000,-0.000000,0.000000,0.000000,-0.000000,0.581418,13.430544,1.725015,-5.689245,-1.116841,-3.229719,-0.437999,0.000000,0.000000,0.000000,0.000000,0.000000,0.000000
1660320835400671005,-0.031093,0.246008,3.132434,-2.294515,-0.046762,0.969624,1.599414,0.003509,0.003509,-0.003509,0.003509,0.003509,-0.003509,-0.207975,-0.109930,-0.063203,-0.176792,-0.313313,0.067206,0.200426,0.000000,0.000000,-0.000000,0.000000,0.000000,-0.000000,0.143086,12.994248,1.532929,-5.912085,-1.055390,-3.303056,-0.508363,0.000000,0.000000,0.000000,0.000000,0.000000,0.000000
1660320835425657510,-0.036204,0.243115,3.130781,-2.299069,-0.054649,0.971454,1.604193,0.003509,0.003509,-0.003509,0.003509,0.003509,-0.003509,-0.197711,-0.122628,-0.060502,-0.180425,-0.313853,0.072404,0.189068,0.000000,0.000000,-0.000000,0.000000,0.000000,-0.000000,-0.269405,12.986789,1.017195,-5.423049,-0.865352,-3.181960,-0.583413,0.000000,0.000000,0.000000,0.000000,0.000000,0.000000
1660320835450770378,-0.040829,0.240165,3.129313,-2.303866,-0.062086,0.973471,1.608553,0.003509,0.003509,-0.003509,0.003509,0.003509,-0.003509,-0.171242,-0.118363,-0.059151,-0.186907,-0.276588,0.073467,0.178534,0.000000,0.000000,-0.000000,0.000000,0.000000,-0.000000,-0.266759,12.625362,1.039553,-5.707225,-0.959512,-3.292800,-0.521669,0.000000,0.000000,0.000000,0.000000,0.000000,0.000000
1660320835475803852,-0.044623,0.237288,3.127975,-2.308380,-0.068298,0.975370,1.612285,0.003509,0.003509,-0.003509,0.003509,0.003509,-0.003509,-0.131808,-0.106326,-0.048888,-0.170021,-0.227112,0.071233,0.131267,0.000000,0.000000,-0.000000,0.000000,0.000000,-0.000000,-0.115592,12.494196,1.070773,-5.975445,-1.129914,-3.583850,-0.352156,0.000000,0.000000,0.000000,0.000000,0.000000,0.000000
1660320835500654935,-0.047533,0.234859,3.126953,-2.312139,-0.073340,0.976992,1.615294,0.003509,0.003509,-0.003509,0.003509,0.003509,-0.003509,-0.099936,-0.086701,-0.032851,-0.130350,-0.162846,0.058881,0.106148,0.000000,0.000000,-0.000000,0.000000,0.000000,-0.000000,-0.058680,11.233494,0.764579,-5.173418,-1.086085,-3.272718,-0.249207,0.000000,0.000000,0.000000,0.000000,0.000000,0.000000
1660320835525635957,-0.049705,0.232973,3.126205,-2.314938,-0.077110,0.978183,1.617445,0.003509,0.003509,-0.003509,0.003509,0.003509,-0.003509,-0.072221,-0.061042,-0.022318,-0.104069,-0.125266,0.036733,0.074277,0.000000,0.000000,-0.000000,0.000000,0.000000,-0.000000,0.009928,11.753793,0.789087,-5.751298,-1.102158,-3.417008,-0.198831,0.000000,0.000000,0.000000,0.000000,0.000000,0.000000
1660320835550696372,-0.051166,0.231677,3.125579,-2.317165,-0.079740,0.979167,1.618945,0.003509,0.003509,-0.003509,0.003509,0.003509,-0.003509,-0.045917,-0.037273,-0.015282,-0.065200,-0.085891,0.037615,0.046457,0.000000,0.000000,-0.000000,0.000000,0.000000,-0.000000,-0.046370,12.279132,0.693344,-6.121809,-1.001400,-3.501163,-0.241587,0.000000,0.000000,0.000000,0.000000,0.000000,0.000000
1660320835575622320,-0.052258,0.230714,3.125225,-2.318668,-0.081578,0.979869,1.619977,0.003509,0.003509,-0.003509,0.003509,0.003509,-0.003509,-0.029563,-0.034843,-0.012952,-0.054019,-0.059962,0.018790,0.040515,0.000000,0.000000,-0.000000,0.000000,0.000000,-0.000000,0.185126,12.106546,0.851435,-5.668145,-1.089609,-3.365660,-0.295478,0.000000,0.000000,0.000000,0.000000,0.000000,0.000000
1660320835600805997,-0.052928,0.229978,3.124993,-2.319664,-0.082690,0.980245,1.620683,0.003509,0.003509,-0.003509,0.003509,0.003509,-0.003509,-0.023572,-0.027010,-0.012682,-0.028900,-0.041595,0.014990,0.017036,0.000000,0.000000,-0.000000,0.000000,0.000000,-0.000000,0.575157,11.849802,1.119328,-6.185647,-1.164786,-3.482324,-0.280602,0.000000,0.000000,0.000000,0.000000,0.000000,0.000000
1660320835625807762,-0.053330,0.229529,3.124825,-2.320330,-0.083494,0.980628,1.621099,0.003509,0.003509,-0.003509,0.003509,0.003509,-0.003509,-0.008634,-0.010272,-0.002720,-0.017805,-0.025077,0.014434,0.014045,0.000000,0.000000,-0.000000,0.000000,0.000000,-0.000000,0.525773,11.995218,1.047712,-5.775721,-1.119263,-3.368849,-0.301564,0.000000,0.000000,0.000000,0.000000,0.000000,0.000000
1660320835650810480,-0.053600,0.229301,3.124751,-2.320789,-0.083976,0.980832,1.621415,0.003509,0.003509,-0.003509,0.003509,0.003509,-0.003509,-0.010804,-0.012142,-0.003510,-0.016746,-0.012484,0.004740,0.009003,0.000000,0.000000,-0.000000,0.000000,0.000000,-0.000000,0.305450,12.313485,1.014992,-5.773781,-1.123815,-3.440395,-0.272293,0.000000,0.000000,0.000000,0.000000,0.000000,0.000000
1660320835675799369,-0.053756,0.229129,3.124650,-2.321095,-0.084225,0.980907,1.621646,0.003509,0.003509,-0.003509,0.003509,0.003509,-0.003509,-0.004740,-0.004106,-0.005310,-0.006242,-0.009003,0.002020,0.005616,0.000000,0.000000,-0.000000,0.000000,0.000000,-0.000000,0.235860,12.457202,0.908640,-6.493188,-1.078095,-3.613323,-0.298445,0.000000,0.000000,0.000000,0.000000,0.000000,0.000000
1660320835700697422,-0.053892,0.229030,3.124559,-2.321232,-0.084434,0.981007,1.621721,0.003509,0.003509,-0.003509,0.003509,0.003509,-0.003509,-0.005582,-0.004500,-0.001441,-0.004651,-0.006227,0.003688,0.002296,0.000000,0.000000,-0.000000,0.000000,0.000000,-0.000000,0.353161,12.179947,1.028618,-5.469886,-1.094774,-3.313061,-0.286927,0.000000,0.000000,0.000000,0.000000,0.000000,0.000000
1660320835725710868,-0.053946,0.228906,3.124547,-2.321337,-0.084513,0.981032,1.621734,0.003509,0.003509,-0.003509,0.003509,0.003509,-0.003509,0.000000,-0.003601,-0.000148,-0.002848,-0.000356,0.000565,0.000364,0.000000,0.000000,-0.000000,0.000000,0.000000,-0.000000,0.419213,11.960109,1.057743,-6.425630,-1.167012,-3.476943,-0.283593,0.000000,0.000000,0.000000,0.000000,0.000000,0.000000
1660320835750736713,-0.053831,0.228865,3.124558,-2.321362,-0.084315,0.981045,1.621684,0.003509,0.003509,-0.003509,0.003509,0.003509,-0.003509,0.015666,-0.001107,0.000412,-0.000745,0.026982,0.000474,-0.001645,0.000000,0.000000,-0.000000,0.000000,0.000000,-0.000000,0.147953,12.009369,0.847828,-5.836621,-1.116689,-3.379964,-0.263961,0.000000,0.000000,0.000000,0.000000,0.000000,0.000000
1660320835775698661,-0.052723,0.228826,3.124768,-2.321411,-0.082895,0.981040,1.620810,0.003509,0.003509,-0.003509,0.003509,0.003509,-0.003509,0.062663,-0.001611,0.020312,-0.002189,0.091833,-0.000055,-0.058881,0.000000,0.000000,-0.000000,0.000000,0.000000,-0.000000,-0.599663,12.015562,0.376303,-6.029585,-1.128114,-3.408033,-0.213375,0.000000,0.000000,0.000000,0.000000,0.000000,0.000000
1660320835800648689,-0.050365,0.228770,3.125450,-2.321591,-0.079531,0.981010,1.618852,0.003509,0.003509,-0.003509,0.003509,0.003509,-0.003509,0.119923,-0.003144,0.037273,-0.013519,0.171242,-0.000591,-0.106959,0.000000,0.000000,-0.000000,0.000000,0.000000,-0.000000,-1.447973,12.339698,-0.166356,-5.892229,-1.195586,-3.439469,-0.039519,0.000000,0.000000,0.000000,0.000000,0.000000,0.000000
1660320835825711250,-0.046717,0.228612,3.126620,-2.321869,-0.074493,0.980903,1.615698,0.003509,0.003509,-0.003509,0.003509,0.003509,-0.003509,0.167356,-0.009028,0.052669,-0.009724,0.248490,-0.006916,-0.152335,0.000000,0.000000,-0.000000,0.000000,0.000000,-0.000000,-1.511807,12.302333,0.030941,-6.155196,-1.388517,-3.481770,0.043643,0.000000,0.000000,0.000000,0.000000,0.000000,0.000000
1660320835850707769,-0.042006,0.228391,3.128109,-2.322141,-0.067478,0.980700,1.611504,0.003509,0.003509,-0.003509,0.003509,0.003509,-0.003509,0.207942,-0.006752,0.062599,-0.008268,0.305210,-0.009389,-0.187988,0.000000,0.000000,-0.000000,0.000000,0.000000,-0.000000,-0.764925,12.233835,0.605756,-6.049576,-1.397347,-3.372019,-0.180369,0.000000,0.000000,0.000000,0.000000,0.000000,0.000000
1660320835875659227,-0.036486,0.228153,3.129949,-2.322396,-0.059178,0.980464,1.606480,0.003509,0.003509,-0.003509,0.003509,0.003509,-0.003509,0.235525,-0.012965,0.076708,-0.013505,0.358689,-0.007546,-0.209113,0.000000,0.000000,-0.000000,0.000000,0.000000,-0.000000,-0.530513,12.040351,0.893186,-5.575288,-1.362600,-3.247603,-0.265494,0.000000,0.000000,0.000000,0.000000,0.000000,0.000000
1660320835900746583,-0.030388,0.227906,3.131868,-2.322715,-0.049829,0.980225,1.600818,0.003509,0.003509,-0.003509,0.003509,0.003509,-0.003509,0.251476,-0.010282,0.081249,-0.019717,0.395963,-0.009389,-0.239306,0.000000,0.000000,-0.000000,0.000000,0.000000,-0.000000,-0.791795,12.183055,0.877545,-6.049581,-1.267945,-3.320621,-0.236279,0.000000,0.000000,0.000000,0.000000,0.000000,0.000000
1660320835925709486,-0.023893,0.227573,3.133910,-2.323264,-0.039759,0.980078,1.594771,0.003509,0.003509,-0.003509,0.003509,0.003509,-0.003509,0.267937,-0.011786,0.085621,-0.021338,0.407307,-0.002872,-0.245249,0.000000,0.000000,-0.000000,0.000000,0.000000,-0.000000,-0.917814,12.618098,0.605448,-5.808793,-1.304580,-3.345919,-0.132490,0.000000,0.000000,0.000000,0.000000,0.000000,0.000000
1660320835950700759,-0.017040,0.227215,3.136103,-2.323821,-0.029187,0.980045,1.588392,0.003509,0.003509,-0.003509,0.003509,0.003509,-0.003509,0.272836,-0.013040,0.085621,-0.023823,0.429455,-0.000605,-0.243088,0.000000,0.000000,-0.000000,0.000000,0.000000,-0.000000,-0.314457,11.979583,0.797377,-6.048181,-1.254449,-3.347477,-0.058696,0.000000,0.000000,0.000000,0.000000,0.000000,0.000000
1660320835975727319,-0.010118,0.226703,3.138365,-2.324480,-0.018270,0.980053,1.582079,0.003509,0.003509,-0.003509,0.003509,0.003509,-0.003509,0.292786,-0.024325,0.083730,-0.022418,0.442960,0.000253,-0.267397,0.000000,0.000000,-0.000000,0.000000,0.000000,-0.000000,-0.300659,12.081749,0.833931,-5.703092,-1.356824,-3.220957,-0.039093,0.000000,0.000000,0.000000,0.000000,0.000000,0.000000
1660320836000730276,-0.002919,0.226223,3.140663,-2.325089,-0.007613,0.980088,1.575224,0.003509,0.003509,-0.003509,0.003509,0.003509,-0.003509,0.282365,-0.021060,0.090213,-0.028588,0.442511,0.001020,-0.284683,0.000000,0.000000,-0.000000,0.000000,0.000000,-0.000000,-0.015476,11.854300,1.060741,-5.807934,-1.624715,-3.318984,-0.361104,0.000000,0.000000,0.000000,0.000000,0.000000,0.000000
1660320836025783300,0.004334,0.225742,-3.140209,-2.325739,0.004198,0.980262,1.568233,0.003509,0.003509,-0.003509,0.003509,0.003509,-0.003509,0.266856,-0.014795,0.088772,-0.028360,0.435334,0.009179,-0.258793,0.000000,0.000000,-0.000000,0.000000,0.000000,-0.000000,-0.372144,12.010468,0.872665,-6.045737,-1.337798,-3.444789,-0.188178,0.000000,0.000000,0.000000,0.000000,0.000000,0.000000
1660320836050743579,0.010261,0.225386,-3.138320,-2.326267,0.013879,0.980522,1.562392,0.003509,0.003509,-0.003509,0.003509,0.003509,-0.003509,0.224991,-0.010804,0.073467,-0.015125,0.364632,0.012560,-0.218670,0.000000,0.000000,-0.000000,0.000000,0.000000,-0.000000,-0.154529,12.228585,0.873161,-5.542269,-1.253633,-3.330028,-0.142130,0.000000,0.000000,0.000000,0.000000,0.000000,0.000000
1660320836075706720,0.015308,0.225113,-3.136698,-2.326639,0.022216,0.980758,1.557388,0.003509,0.003509,-0.003509,0.003509,0.003509,-0.003509,0.178264,-0.008526,0.058611,-0.009724,0.290061,0.007815,-0.178534,0.000000,0.000000,-0.000000,0.000000,0.000000,-0.000000,0.636596,11.911247,1.480726,-6.083993,-1.645684,-3.413284,-0.152579,0.000000,0.000000,0.000000,0.000000,0.000000,0.000000
1660320836100698709,0.019156,0.225005,-3.135451,-2.326850,0.028650,0.980931,1.553575,0.003509,0.003509,-0.003509,0.003509,0.003509,-0.003509,0.126676,-0.002925,0.046457,-0.008373,0.226031,0.006278,-0.131267,0.000000,0.000000,-0.000000,0.000000,0.000000,-0.000000,0.770687,12.008479,1.680090,-5.209566,-1.529381,-3.280750,0.021748,0.000000,0.000000,0.000000,0.000000,0.000000,0.000000
1660320836125722646,0.021830,0.224927,-3.134533,-2.326986,0.033220,0.981051,1.550838,0.003509,0.003509,-0.003509,0.003509,0.003509,-0.003509,0.092643,-0.003510,0.026199,-0.003773,0.159087,0.003274,-0.094534,0.000000,0.000000,-0.000000,0.000000,0.000000,-0.000000,0.662955,12.042603,1.653792,-6.306708,-1.437693,-3.573509,-0.095893,0.000000,0.000000,0.000000,0.000000,0.000000,0.000000
1660320836150677680,0.023754,0.224827,-3.133957,-2.327034,0.036573,0.981155,1.548812,0.003509,0.003509,-0.003509,0.003509,0.003509,-0.003509,0.055370,-0.004387,0.021878,-0.001303,0.112786,0.003510,-0.066444,0.000000,0.000000,-0.000000,0.000000,0.000000,-0.000000,0.020996,12.255364,1.130568,-5.544097,-1.340153,-3.414516,-0.205083,0.000000,0.000000,0.000000,0.000000,0.000000,0.000000
1660320836175706386,0.025048,0.224727,-3.133582,-2.327088,0.038923,0.981212,1.547398,0.003509,0.003509,-0.003509,0.003509,0.003509,-0.003509,0.049652,-0.002649,0.017286,-0.002413,0.075357,0.002205,-0.049158,0.000000,0.000000,-0.000000,0.000000,0.000000,-0.000000,-0.371712,11.571544,0.716458,-5.966477,-1.245984,-3.413358,-0.282951,0.000000,0.000000,0.000000,0.000000,0.000000,0.000000
1660320836200655460,0.025949,0.224697,-3.133291,-2.327126,0.040327,0.981280,1.546536,0.003509,0.003509,-0.003509,0.003509,0.003509,-0.003509,0.025578,-0.000729,0.011884,-0.001821,0.045376,0.001995,-0.031872,0.000000,0.000000,-0.000000,0.000000,0.000000,-0.000000,-0.515090,11.614421,0.638343,-5.572943,-1.251195,-3.333578,-0.295484,0.000000,0.000000,0.000000,0.000000,0.000000,0.000000
1660320836225678443,0.026556,0.224693,-3.133027,-2.327199,0.041319,0.981301,1.545975,0.003509,0.003509,-0.003509,0.003509,0.003509,-0.003509,0.017303,-0.000038,0.003641,-0.001887,0.032649,0.000718,-0.016049,0.000000,0.000000,-0.000000,0.000000,0.000000,-0.000000,-0.172403,12.346858,0.900600,-5.780126,-1.199919,-3.504408,-0.307191,0.000000,0.000000,0.000000,0.000000,0.000000,0.000000
1660320836250672578,0.026873,0.224692,-3.132943,-2.327229,0.041884,0.981318,1.545655,0.003509,0.003509,-0.003509,0.003509,0.003509,-0.003509,0.012154,-0.000051,0.003564,-0.000977,0.014990,0.000668,-0.010709,0.000000,0.000000,-0.000000,0.000000,0.000000,-0.000000,0.089303,12.247480,1.077657,-5.834731,-1.215025,-3.472175,-0.325195,0.000000,0.000000,0.000000,0.000000,0.000000,0.000000
1660320836275632143,0.027010,0.224689,-3.132860,-2.327238,0.042209,0.981340,1.545489,0.003509,0.003509,-0.003509,0.003509,0.003509,-0.003509,0.003248,-0.000112,0.002979,-0.000232,0.013517,0.000754,-0.006649,0.000000,0.000000,-0.000000,0.000000,0.000000,-0.000000,-0.181782,11.805489,0.807316,-5.445487,-1.184817,-3.318346,-0.310895,0.000000,0.000000,0.000000,0.000000,0.000000,0.000000
1660320836300758600,0.027088,0.224688,-3.132813,-2.327244,0.042433,0.981344,1.545337,0.003509,0.003509,-0.003509,0.003509,0.003509,-0.003509,0.003458,-0.000090,0.001188,-0.000219,0.005003,0.000530,-0.004388,0.000000,0.000000,-0.000000,0.000000,0.000000,-0.000000,-0.381287,12.103238,0.578177,-5.865890,-1.141157,-3.462680,-0.331452,0.000000,0.000000,0.000000,0.000000,0.000000,0.000000
1660320836325775384,0.027173,0.224688,-3.132798,-2.327246,0.042516,0.981347,1.545265,0.003509,0.003509,-0.003509,0.003509,0.003509,-0.003509,0.003179,-0.000033,0.000530,-0.000159,0.001095,0.000195,-0.002605,0.000000,0.000000,-0.000000,0.000000,0.000000,-0.000000,-0.236414,12.242909,0.755586,-5.795702,-1.174737,-3.459983,-0.338862,0.000000,0.000000,0.000000,0.000000,0.000000,0.000000
1660320836350878238,0.027218,0.224687,-3.132790,-2.327248,0.042548,0.981354,1.545230,0.003509,0.003509,-0.003509,0.003509,0.003509,-0.003509,0.000638,-0.000012,0.000322,-0.000077,0.000316,0.000159,-0.001268,0.000000,0.000000,-0.000000,0.000000,0.000000,-0.000000,0.069861,11.588214,1.013599,-5.732570,-1.252867,-3.331804,-0.339960,0.000000,0.000000,0.000000,0.000000,0.000000,0.000000
1660320836375698089,0.027222,0.224686,-3.132789,-2.327248,0.042565,0.981359,1.545216,0.003509,0.003509,-0.003509,0.003509,0.003509,-0.003509,0.000061,-0.000024,0.000112,-0.000033,0.000672,0.000186,-0.000581,0.000000,0.000000,-0.000000,0.000000,0.000000,-0.000000,0.044797,11.746688,0.940964,-5.845166,-1.222427,-3.400396,-0.329168,0.000000,0.000000,0.000000,0.000000,0.000000,0.000000
1660320836400698661,0.027221,0.224686,-3.132790,-2.327248,0.042577,0.981359,1.545211,0.003509,0.003509,-0.003509,0.003509,0.003509,-0.003509,-0.000026,-0.000015,-0.000013,-0.000012,0.000502,0.000161,-0.000208,0.000000,0.000000,-0.000000,0.000000,0.000000,-0.000000,-0.401869,12.190075,0.669927,-5.771278,-1.133897,-3.434381,-0.330468,0.000000,0.000000,0.000000,0.000000,0.000000,0.000000
1660320836425743341,0.027218,0.224687,-3.132791,-2.327248,0.042583,0.981360,1.545211,0.003509,0.003509,-0.003509,0.003509,0.003509,-0.003509,-0.000076,-0.000008,-0.000047,0.000000,0.000395,0.000125,-0.000057,0.000000,0.000000,-0.000000,0.000000,0.000000,-0.000000,-0.662266,12.049900,0.438667,-5.756716,-1.058128,-3.412743,-0.323859,0.000000,0.000000,0.000000,0.000000,0.000000,0.000000
1660320836450809001,0.027215,0.224687,-3.132791,-2.327248,0.042579,0.981361,1.545211,0.003509,0.003509,-0.003509,0.003509,0.003509,-0.003509,-0.000106,0.000000,-0.000035,0.000000,0.000096,0.000068,0.000000,0.000000,0.000000,-0.000000,0.000000,0.000000,-0.000000,-0.237534,12.020345,0.758690,-5.549197,-1.142766,-3.389234,-0.340253,0.000000,0.000000,0.000000,0.000000,0.000000,0.000000
1660320836475712776,0.027211,0.224687,-3.132791,-2.327248,0.042571,0.981361,1.545211,0.003509,0.003509,-0.003509,0.003509,0.003509,-0.003509,-0.000132,0.000013,-0.000022,0.000003,-0.000120,0.000019,0.000000,0.000000,0.000000,-0.000000,0.000000,0.000000,-0.000000,0.177949,12.171684,1.114461,-5.863535,-1.248549,-3.469734,-0.317342,0.000000,0.000000,0.000000,0.000000,0.000000,0.000000
1660320836500771999,0.027201,0.224687,-3.132793,-2.327247,0.042567,0.981361,1.545212,0.003509,0.003509,-0.003509,0.003509,0.003509,-0.003509,-0.000217,0.000008,-0.000032,0.000008,-0.000180,0.000019,0.000011,0.000000,0.000000,-0.000000,0.000000,0.000000,-0.000000,0.086857,11.965145,0.952520,-5.830805,-1.221740,-3.422836,-0.345287,0.000000,0.000000,0.000000,0.000000,0.000000,0.000000
1660320836525746107,0.027182,0.224687,-3.132797,-2.327247,0.042565,0.981361,1.545214,0.003509,0.003509,-0.003509,0.003509,0.003509,-0.003509,-0.000796,0.000005,-0.000066,0.000008,-0.000188,0.000011,0.000029,0.000000,0.000000,-0.000000,0.000000,0.000000,-0.000000,-0.329893,11.608561,0.680247,-5.686516,-1.127273,-3.350308,-0.340435,0.000000,0.000000,0.000000,0.000000,0.000000,0.000000
1660320836550748586,0.027156,0.224688,-3.132801,-2.327246,0.042560,0.981361,1.545215,0.003509,0.003509,-0.003509,0.003509,0.003509,-0.003509,-0.001094,0.000008,-0.000098,0.000011,-0.000198,0.000000,0.000037,0.000000,0.000000,-0.000000,0.000000,0.000000,-0.000000,-0.415439,12.017655,0.598321,-5.925914,-1.083243,-3.444915,-0.362071,0.000000,0.000000,0.000000,0.000000,0.000000,0.000000
1660320836575695753,0.027126,0.224688,-3.132803,-2.327246,0.042549,0.981361,1.545217,0.003509,0.003509,-0.003509,0.003509,0.003509,-0.003509,-0.001214,0.000005,-0.000117,0.000011,-0.000228,0.000000,0.000058,0.000000,0.000000,-0.000000,0.000000,0.000000,-0.000000,-0.011824,12.062838,0.928758,-5.706273,-1.189897,-3.418776,-0.350473,0.000000,0.000000,0.000000,0.000000,0.000000,0.000000
1660320836600679397,0.027092,0.224688,-3.132804,-2.327246,0.042540,0.981361,1.545217,0.003509,0.003509,-0.003509,0.003509,0.003509,-0.003509,-0.001369,0.000011,-0.000111,0.000011,-0.000265,0.000000,0.000056,0.000000,0.000000,-0.000000,0.000000,0.000000,-0.000000,0.175998,11.854238,1.034876,-5.847551,-1.232304,-3.417106,-0.339840,0.000000,0.000000,0.000000,0.000000,0.000000,0.000000
1660320836625751972,0.027048,0.224688,-3.132808,-2.327246,0.042538,0.981361,1.545220,0.003509,0.003509,-0.003509,0.003509,0.003509,-0.003509,-0.001954,0.000011,-0.000109,0.000013,-0.000265,0.000000,0.000074,0.000000,0.000000,-0.000000,0.000000,0.000000,-0.000000,-0.097673,12.047855,0.857101,-5.579707,-1.158958,-3.376671,-0.356318,0.000000,0.000000,0.000000,0.000000,0.000000,0.000000
1660320836650744915,0.027005,0.224689,-3.132816,-2.327246,0.042537,0.981361,1.545222,0.003509,0.003509,-0.003509,0.003509,0.003509,-0.003509,-0.001505,0.000013,-0.000151,0.000008,-0.000236,0.000000,0.000074,0.000000,0.000000,-0.000000,0.000000,0.000000,-0.000000,-0.420831,12.336205,0.615921,-5.901496,-1.098607,-3.504624,-0.357636,0.000000,0.000000,0.000000,0.000000,0.000000,0.000000
1660320836675716638,0.026984,0.224689,-3.132821,-2.327245,0.042534,0.981361,1.545223,0.003509,0.003509,-0.003509,0.003509,0.003509,-0.003509,-0.000706,0.000013,-0.000225,0.000013,-0.000151,0.000000,0.000066,0.000000,0.000000,-0.000000,0.000000,0.000000,-0.000000,-0.434734,11.894754,0.594903,-5.663418,-1.092455,-3.385345,-0.347166,0.000000,0.000000,0.000000,0.000000,0.000000,0.000000
1660320836700721979,0.026976,0.224689,-3.132823,-2.327245,0.042526,0.981361,1.545225,0.003509,0.003509,-0.003509,0.003509,0.003509,-0.003509,-0.000265,0.000008,-0.000194,0.000008,-0.000143,0.000000,0.000077,0.000000,0.000000,-0.000000,0.000000,0.000000,-0.000000,-0.014776,11.690207,0.908659,-5.780922,-1.178555,-3.363755,-0.347594,0.000000,0.000000,0.000000,0.000000,0.000000,0.000000
1660320836725704908,0.026972,0.224689,-3.132825,-2.327245,0.042520,0.981361,1.545226,0.003509,0.003509,-0.003509,0.003509,0.003509,-0.003509,-0.000173,0.000013,-0.000148,0.000005,-0.000180,0.000000,0.000066,0.000000,0.000000,-0.000000,0.000000,0.000000,-0.000000,0.175064,11.947396,1.074029,-5.893828,-1.228590,-3.418570,-0.353914,0.000000,0.000000,0.000000,0.000000,0.000000,0.000000
1660320836750733613,0.026964,0.224689,-3.132830,-2.327245,0.042520,0.981361,1.545228,0.003509,0.003509,-0.003509,0.003509,0.003509,-0.003509,-0.000241,0.000005,-0.000126,0.000011,-0.000161,0.000000,0.000066,0.000000,0.000000,-0.000000,0.000000,0.000000,-0.000000,-0.040627,11.971682,0.896168,-5.781093,-1.163749,-3.424989,-0.337627,0.000000,0.000000,0.000000,0.000000,0.000000,0.000000
1660320836775732994,0.026953,0.224690,-3.132837,-2.327244,0.042520,0.981361,1.545229,0.003509,0.003509,-0.003509,0.003509,0.003509,-0.003509,-0.000395,0.000008,-0.000159,0.000011,-0.000132,0.000000,0.000058,0.000000,0.000000,-0.000000,0.000000,0.000000,-0.000000,-0.247673,11.880063,0.744165,-5.707987,-1.127859,-3.382858,-0.353501,0.000000,0.000000,0.000000,0.000000,0.000000,0.000000
1660320836800683259,0.026947,0.224691,-3.132841,-2.327244,0.042520,0.981361,1.545231,0.003509,0.003509,-0.003509,0.003509,0.003509,-0.003509,-0.000331,0.000019,-0.000185,0.000011,-0.000066,0.000000,0.000056,0.000000,0.000000,-0.000000,0.000000,0.000000,-0.000000,-0.119343,12.155615,0.848638,-5.759600,-1.150673,-3.438983,-0.352648,0.000000,0.000000,0.000000,0.000000,0.000000,0.000000
1660320836825716018,0.026943,0.224691,-3.132844,-2.327244,0.042518,0.981360,1.545232,0.003509,0.003509,-0.003509,0.003509,0.003509,-0.003509,-0.000209,0.000019,-0.000193,0.000013,-0.000019,-0.000011,0.000058,0.000000,0.000000,-0.000000,0.000000,0.000000,-0.000000,0.012535,12.098871,0.952798,-5.775066,-1.197415,-3.426283,-0.344271,0.000000,0.000000,0.000000,0.000000,0.000000,0.000000
1660320836850753068,0.026938,0.224691,-3.132849,-2.327243,0.042517,0.981361,1.545232,0.003509,0.003509,-0.003509,0.003509,0.003509,-0.003509,-0.000175,0.000019,-0.000184,0.000013,-0.000029,0.000000,0.000037,0.000000,0.000000,-0.000000,0.000000,0.000000,-0.000000,-0.131490,11.906116,0.844922,-5.735102,-1.155007,-3.418905,-0.344137,0.000000,0.000000,0.000000,0.000000,0.000000,0.000000
1660320836875703811,0.026931,0.224679,-3.132858,-2.327236,0.042518,0.981326,1.545232,0.003509,0.003509,-0.003509,0.003509,0.003509,-0.003509,-0.000213,-0.000109,-0.000217,0.000077,-0.000019,-0.000339,0.000029,0.000000,0.000000,-0.000000,0.000000,0.000000,-0.000000,-0.405523,11.949578,0.669777,-5.789777,-1.106871,-3.380624,-0.350679,0.000000,0.000000,0.000000,0.000000,0.000000,0.000000
1660320836900659799,0.026926,0.224056,-3.132872,-2.327016,0.042523,0.980583,1.545230,0.003509,0.003509,-0.003509,0.003509,0.003509,-0.003509,-0.000226,-0.042945,-0.000523,0.022958,0.000029,-0.064553,0.000000,0.000000,0.000000,-0.000000,0.000000,0.000000,-0.000000,-0.396035,13.327441,0.663876,-6.531196,-1.132995,-3.555460,-0.348204,0.000000,0.000000,0.000000,0.000000,0.000000,0.000000
1660320836925665616,0.026926,0.222306,-3.132894,-2.326081,0.042546,0.977994,1.545210,0.003509,0.003509,-0.003509,0.003509,0.003509,-0.003509,-0.000169,-0.097775,-0.000923,0.054774,0.000275,-0.143546,-0.000217,0.000000,0.000000,-0.000000,0.000000,0.000000,-0.000000,-0.070259,14.084199,1.004888,-7.064804,-1.192635,-3.574206,-0.337192,0.000000,0.000000,0.000000,0.000000,0.000000,0.000000
1660320836950777053,0.026927,0.219226,-3.132935,-2.324242,0.042605,0.973668,1.544979,0.003509,0.003509,-0.003509,0.003509,0.003509,-0.003509,-0.000085,-0.138290,-0.002153,0.079328,0.002776,-0.203653,-0.010354,0.000000,0.000000,-0.000000,0.000000,0.000000,-0.000000,0.189723,13.996055,1.190011,-6.723887,-1.242501,-3.284184,-0.356377,0.000000,0.000000,0.000000,0.000000,0.000000,0.000000
1660320836975816965,0.026929,0.215298,-3.133000,-2.321810,0.042782,0.967691,1.544679,0.003509,0.003509,-0.003509,0.003509,0.003509,-0.003509,0.000006,-0.177093,-0.002533,0.101557,0.006100,-0.254040,-0.015396,0.000000,0.000000,-0.000000,0.000000,0.000000,-0.000000,0.146728,13.193185,1.133608,-6.880800,-1.246333,-3.116325,-0.340556,0.000000,0.000000,0.000000,0.000000,0.000000,0.000000
1660320837000764608,0.026931,0.210378,-3.133053,-2.318932,0.043071,0.960302,1.544310,0.003509,0.003509,-0.003509,0.003509,0.003509,-0.003509,0.000050,-0.198171,-0.001987,0.127892,0.012560,-0.328979,-0.013505,0.000000,0.000000,-0.000000,0.000000,0.000000,-0.000000,-0.184202,13.443467,0.968186,-7.017094,-1.209596,-3.334426,-0.359842,0.000000,0.000000,0.000000,0.000000,0.000000,0.000000
1660320837025634288,0.026936,0.205111,-3.133106,-2.315468,0.043318,0.951873,1.544013,0.003509,0.003509,-0.003509,0.003509,0.003509,-0.003509,0.000090,-0.213955,-0.001917,0.145696,0.010007,-0.346562,-0.010972,0.000000,0.000000,-0.000000,0.000000,0.000000,-0.000000,-0.470339,12.329706,0.708031,-6.023098,-1.071993,-3.266609,-0.361562,0.000000,0.000000,0.000000,0.000000,0.000000,0.000000
1660320837050763607,0.026944,0.199565,-3.133168,-2.311578,0.043542,0.942710,1.543669,0.003509,0.003509,-0.003509,0.003509,0.003509,-0.003509,0.000170,-0.222560,-0.002852,0.162498,0.008775,-0.377156,-0.017676,0.000000,0.000000,-0.000000,0.000000,0.000000,-0.000000,-0.447632,11.645944,0.608756,-6.228988,-1.103812,-2.988885,-0.359945,0.000000,0.000000,0.000000,0.000000,0.000000,0.000000
1660320837075773954,0.026956,0.193937,-3.133268,-2.307358,0.043776,0.933357,1.543199,0.003509,0.003509,-0.003509,0.003509,0.003509,-0.003509,0.000446,-0.225479,-0.006210,0.174284,0.009389,-0.395963,-0.022148,0.000000,0.000000,-0.000000,0.000000,0.000000,-0.000000,-0.090938,11.800189,1.012696,-6.730865,-1.221357,-2.905219,-0.361552,0.000000,0.000000,0.000000,0.000000,0.000000,0.000000
1660320837100714206,0.026966,0.188336,-3.133448,-2.302791,0.043994,0.922579,1.542621,0.003509,0.003509,-0.003509,0.003509,0.003509,-0.003509,0.000445,-0.224978,-0.004291,0.182586,0.008370,-0.407037,-0.021566,0.000000,0.000000,-0.000000,0.000000,0.000000,-0.000000,0.045309,12.598097,1.172153,-7.120341,-1.273242,-2.983927,-0.364831,0.000000,0.000000,0.000000,0.000000,0.000000,0.000000
1660320837125720262,0.026972,0.182755,-3.133521,-2.298013,0.044237,0.912665,1.542171,0.003509,0.003509,-0.003509,0.003509,0.003509,-0.003509,0.000312,-0.221210,-0.003138,0.194200,0.010969,-0.410008,-0.016645,0.000000,0.000000,-0.000000,0.000000,0.000000,-0.000000,-0.166313,12.353557,0.938439,-6.969642,-1.204001,-2.950308,-0.360947,0.000000,0.000000,0.000000,0.000000,0.000000,0.000000
1660320837150675535,0.026979,0.177217,-3.133592,-2.293022,0.044532,0.902287,1.541796,0.003509,0.003509,-0.003509,0.003509,0.003509,-0.003509,0.000265,-0.217428,-0.003353,0.203122,0.013907,-0.417841,-0.014045,0.000000,0.000000,-0.000000,0.000000,0.000000,-0.000000,-0.188179,11.631468,1.029460,-6.630600,-1.184548,-2.902431,-0.360199,0.000000,0.000000,0.000000,0.000000,0.000000,0.000000
1660320837175740957,0.026990,0.171751,-3.133732,-2.287987,0.044847,0.891718,1.541344,0.003509,0.003509,-0.003509,0.003509,0.003509,-0.003509,0.000348,-0.217428,-0.005589,0.200113,0.012553,-0.425554,-0.021338,0.000000,0.000000,-0.000000,0.000000,0.000000,-0.000000,0.044059,12.117789,1.174598,-7.198981,-1.236313,-3.054574,-0.334769,0.000000,0.000000,0.000000,0.000000,0.000000,0.000000
1660320837200798988,0.027002,0.166421,-3.133807,-2.283017,0.045167,0.881349,1.540754,0.003509,0.003509,-0.003509,0.003509,0.003509,-0.003509,0.000499,-0.214510,-0.001600,0.203113,0.013505,-0.399474,-0.025119,0.000000,0.000000,-0.000000,0.000000,0.000000,-0.000000,-0.030132,12.117791,1.193920,-6.613008,-1.258999,-3.233798,-0.296969,0.000000,0.000000,0.000000,0.000000,0.000000,0.000000
1660320837225695848,0.027012,0.161535,-3.133849,-2.278384,0.045499,0.871888,1.540299,0.003509,0.003509,-0.003509,0.003509,0.003509,-0.003509,0.000433,-0.178084,-0.001543,0.170021,0.011320,-0.355244,-0.013524,0.000000,0.000000,-0.000000,0.000000,0.000000,-0.000000,-0.392486,10.105643,0.850761,-5.237433,-1.169118,-2.724916,-0.259455,0.000000,0.000000,0.000000,0.000000,0.000000,0.000000
1660320837250698566,0.027025,0.157644,-3.133884,-2.274649,0.045722,0.864192,1.539944,0.003509,0.003509,-0.003509,0.003509,0.003509,-0.003509,0.000447,-0.135991,-0.001223,0.128026,0.008743,-0.292245,-0.015337,0.000000,0.000000,-0.000000,0.000000,0.000000,-0.000000,-0.543517,10.028195,0.652097,-6.134885,-1.144360,-2.848904,-0.278571,0.000000,0.000000,0.000000,0.000000,0.000000,0.000000
1660320837275662422,0.027059,0.154826,-3.133904,-2.271807,0.045888,0.857874,1.539620,0.003509,0.003509,-0.003509,0.003509,0.003509,-0.003509,0.001821,-0.099666,-0.000695,0.095885,0.008016,-0.208515,-0.008424,0.000000,0.000000,-0.000000,0.000000,0.000000,-0.000000,-0.198896,11.517352,1.009460,-6.986081,-1.207176,-2.910504,-0.279037,0.000000,0.000000,0.000000,0.000000,0.000000,0.000000
1660320837300690174,0.027176,0.152725,-3.133923,-2.269764,0.046038,0.853313,1.539399,0.003509,0.003509,-0.003509,0.003509,0.003509,-0.003509,0.005201,-0.069899,-0.000796,0.073475,0.005732,-0.147473,-0.007812,0.000000,0.000000,-0.000000,0.000000,0.000000,-0.000000,-0.007746,12.059647,1.169498,-7.013916,-1.209736,-3.040970,-0.273662,0.000000,0.000000,0.000000,0.000000,0.000000,0.000000
1660320837325721025,0.027216,0.151271,-3.133944,-2.268308,0.046128,0.850144,1.539206,0.003509,0.003509,-0.003509,0.003509,0.003509,-0.003509,0.000479,-0.045847,-0.000821,0.045106,0.001755,-0.104821,-0.005905,0.000000,0.000000,-0.000000,0.000000,0.000000,-0.000000,0.165260,10.966643,1.284505,-6.519629,-1.249241,-2.944334,-0.257900,0.000000,0.000000,0.000000,0.000000,0.000000,0.000000
1660320837350714921,0.027220,0.150294,-3.133973,-2.267266,0.046210,0.848006,1.539086,0.003509,0.003509,-0.003509,0.003509,0.003509,-0.003509,0.000061,-0.034105,-0.001364,0.032682,0.003115,-0.072723,-0.002711,0.000000,0.000000,-0.000000,0.000000,0.000000,-0.000000,-0.033440,11.350852,1.153429,-6.728562,-1.219069,-2.817194,-0.292749,0.000000,0.000000,0.000000,0.000000,0.000000,0.000000
1660320837375680446,0.027220,0.149731,-3.134014,-2.266680,0.046262,0.846649,1.539028,0.003509,0.003509,-0.003509,0.003509,0.003509,-0.003509,0.000000,-0.015548,-0.001902,0.016746,0.000364,-0.042129,-0.001844,0.000000,0.000000,-0.000000,0.000000,0.000000,-0.000000,-0.310955,12.347234,0.974778,-7.029233,-1.142139,-3.036566,-0.275998,0.000000,0.000000,0.000000,0.000000,0.000000,0.000000
1660320837400669097,0.027228,0.149549,-3.134044,-2.266471,0.046334,0.846101,1.538965,0.003509,0.003509,-0.003509,0.003509,0.003509,-0.003509,0.000151,0.000891,-0.000334,0.000675,0.006160,-0.000520,-0.002609,0.000000,0.000000,-0.000000,0.000000,0.000000,-0.000000,-0.415991,11.563713,0.904125,-6.742410,-1.152178,-2.892437,-0.283347,0.000000,0.000000,0.000000,0.000000,0.000000,0.000000
1660320837425672531,0.027469,0.150042,-3.134023,-2.266640,0.046726,0.846799,1.538722,0.003509,0.003509,-0.003509,0.003509,0.003509,-0.003509,0.021065,0.041126,0.000894,-0.023823,0.030791,0.068961,-0.018595,0.000000,0.000000,-0.000000,0.000000,0.000000,-0.000000,-0.432598,10.592796,0.836320,-6.271617,-1.166290,-2.847136,-0.259682,0.000000,0.000000,0.000000,0.000000,0.000000,0.000000
1660320837450706720,0.028385,0.151707,-3.133799,-2.267681,0.048109,0.849415,1.537857,0.003509,0.003509,-0.003509,0.003509,0.003509,-0.003509,0.053425,0.082110,0.012538,-0.056620,0.075902,0.137880,-0.051319,0.000000,0.000000,-0.000000,0.000000,0.000000,-0.000000,-0.580886,9.983545,0.657779,-5.628485,-1.206534,-2.913396,-0.256325,0.000000,0.000000,0.000000,0.000000,0.000000,0.000000
1660320837475688457,0.030254,0.154282,-3.133144,-2.269676,0.050835,0.853653,1.536072,0.003509,0.003509,-0.003509,0.003509,0.003509,-0.003509,0.089402,0.112631,0.041839,-0.082380,0.147743,0.188902,-0.089582,0.000000,0.000000,-0.000000,0.000000,0.000000,-0.000000,-1.183751,11.355745,0.030993,-6.509884,-1.205007,-3.416541,-0.229016,0.000000,0.000000,0.000000,0.000000,0.000000,0.000000
1660320837500652074,0.032812,0.157211,-3.132154,-2.271909,0.054899,0.858565,1.533461,0.003509,0.003509,-0.003509,0.003509,0.003509,-0.003509,0.115062,0.117222,0.047807,-0.097334,0.193930,0.219422,-0.135049,0.000000,0.000000,-0.000000,0.000000,0.000000,-0.000000,-1.457876,11.282830,-0.177065,-6.406396,-1.186373,-3.404175,-0.163137,0.000000,0.000000,0.000000,0.000000,0.000000,0.000000
1660320837525671243,0.036394,0.160463,-3.130807,-2.274685,0.060630,0.864593,1.529702,0.003509,0.003509,-0.003509,0.003509,0.003509,-0.003509,0.151255,0.127216,0.059432,-0.116952,0.237416,0.249840,-0.149482,0.000000,0.000000,-0.000000,0.000000,0.000000,-0.000000,-0.850395,10.729208,0.127163,-6.271939,-1.095986,-3.263169,-0.170074,0.000000,0.000000,0.000000,0.000000,0.000000,0.000000
1660320837550720214,0.040458,0.163534,-3.129332,-2.277670,0.067260,0.870830,1.525515,0.003509,0.003509,-0.003509,0.003509,0.003509,-0.003509,0.170798,0.122375,0.060937,-0.124632,0.272335,0.243518,-0.165840,0.000000,0.000000,-0.000000,0.000000,0.000000,-0.000000,-0.199574,11.329038,0.472938,-5.868816,-1.306250,-3.244870,-0.097375,0.000000,0.000000,0.000000,0.000000,0.000000,0.000000
1660320837575661659,0.044957,0.166379,-3.127676,-2.281275,0.074585,0.877354,1.520823,0.003509,0.003509,-0.003509,0.003509,0.003509,-0.003509,0.183139,0.111280,0.071720,-0.149904,0.303681,0.258753,-0.189956,0.000000,0.000000,-0.000000,0.000000,0.000000,-0.000000,-0.030585,11.837916,0.696227,-5.863997,-1.324429,-3.285658,-0.090433,0.000000,0.000000,0.000000,0.000000,0.000000,0.000000
1660320837600756168,0.049685,0.169017,-3.125914,-2.285237,0.082421,0.883855,1.515902,0.003509,0.003509,-0.003509,0.003509,0.003509,-0.003509,0.191769,0.104258,0.068875,-0.166650,0.323491,0.276848,-0.205129,0.000000,0.000000,-0.000000,0.000000,0.000000,-0.000000,-0.638577,12.439395,0.442356,-6.013681,-1.318920,-3.489266,-0.245068,0.000000,0.000000,0.000000,0.000000,0.000000,0.000000
1660320837625825643,0.054624,0.171195,-3.124155,-2.289527,0.090548,0.890763,1.510938,0.003509,0.003509,-0.003509,0.003509,0.003509,-0.003509,0.199332,0.080489,0.074817,-0.180512,0.315276,0.270097,-0.219859,0.000000,0.000000,-0.000000,0.000000,0.000000,-0.000000,-0.668096,12.197350,0.618066,-5.946241,-1.248690,-3.566603,-0.315852,0.000000,0.000000,0.000000,0.000000,0.000000,0.000000
1660320837650828123,0.059578,0.172864,-3.122350,-2.294158,0.098478,0.897485,1.505848,0.003509,0.003509,-0.003509,0.003509,0.003509,-0.003509,0.210732,0.050778,0.074547,-0.184829,0.345105,0.254702,-0.211398,0.000000,0.000000,-0.000000,0.000000,0.000000,-0.000000,-0.410301,11.884762,0.889969,-6.450863,-1.289726,-3.509977,-0.229889,0.000000,0.000000,0.000000,0.000000,0.000000,0.000000
1660320837675720214,0.064855,0.173903,-3.120488,-2.298983,0.107029,0.903783,1.500736,0.003509,0.003509,-0.003509,0.003509,0.003509,-0.003509,0.210946,0.021878,0.071036,-0.186907,0.347345,0.239306,-0.202573,0.000000,0.000000,-0.000000,0.000000,0.000000,-0.000000,-0.338977,11.641076,1.228794,-6.166471,-1.331034,-3.274389,-0.210309,0.000000,0.000000,0.000000,0.000000,0.000000,0.000000
1660320837700695991,0.070070,0.174170,-3.118633,-2.303798,0.115481,0.909376,1.495697,0.003509,0.003509,-0.003509,0.003509,0.003509,-0.003509,0.203924,-0.000405,0.070766,-0.182309,0.336470,0.213107,-0.202573,0.000000,0.000000,-0.000000,0.000000,0.000000,-0.000000,-0.246059,11.438787,1.228708,-6.772558,-1.412144,-3.221923,-0.115209,0.000000,0.000000,0.000000,0.000000,0.000000,0.000000
1660320837725625514,0.074798,0.174114,-3.116894,-2.307902,0.123364,0.914085,1.490975,0.003509,0.003509,-0.003509,0.003509,0.003509,-0.003509,0.179049,-0.004571,0.057203,-0.158547,0.291731,0.168640,-0.170702,0.000000,0.000000,-0.000000,0.000000,0.000000,-0.000000,-0.023681,11.088364,1.051257,-6.488050,-1.101499,-3.468819,-0.016564,0.000000,0.000000,0.000000,0.000000,0.000000,0.000000
1660320837750759840,0.078700,0.173804,-3.115531,-2.311489,0.129983,0.917728,1.487070,0.003509,0.003509,-0.003509,0.003509,0.003509,-0.003509,0.138795,-0.015411,0.053209,-0.123127,0.228773,0.127577,-0.141433,0.000000,0.000000,-0.000000,0.000000,0.000000,-0.000000,0.397327,11.310273,1.371431,-6.235722,-1.251821,-3.319231,-0.104485,0.000000,0.000000,0.000000,0.000000,0.000000,0.000000
1660320837775803327,0.081704,0.173434,-3.114399,-2.314124,0.135127,0.920309,1.483915,0.003509,0.003509,-0.003509,0.003509,0.003509,-0.003509,0.099054,-0.013505,0.037814,-0.088521,0.174753,0.094534,-0.102699,0.000000,0.000000,-0.000000,0.000000,0.000000,-0.000000,0.534650,11.990746,1.471130,-6.080361,-1.359175,-3.468222,-0.283730,0.000000,0.000000,0.000000,0.000000,0.000000,0.000000
1660320837800758838,0.083872,0.173071,-3.113616,-2.315991,0.138976,0.922344,1.481763,0.003509,0.003509,-0.003509,0.003509,0.003509,-0.003509,0.076438,-0.017826,0.018367,-0.061042,0.119653,0.067524,-0.082920,0.000000,0.000000,-0.000000,0.000000,0.000000,-0.000000,0.283020,11.416609,1.256869,-5.932042,-1.262385,-3.451795,-0.321095,0.000000,0.000000,0.000000,0.000000,0.000000,0.000000
1660320837825797080,0.085307,0.172665,-3.113020,-2.317262,0.141575,0.923710,1.480152,0.003509,0.003509,-0.003509,0.003509,0.003509,-0.003509,0.051319,-0.010272,0.022958,-0.045917,0.091470,0.036696,-0.056778,0.000000,0.000000,-0.000000,0.000000,0.000000,-0.000000,-0.329937,11.427596,0.655003,-6.156150,-1.152992,-3.441916,-0.356763,0.000000,0.000000,0.000000,0.000000,0.000000,0.000000
1660320837850696563,0.086387,0.172459,-3.112666,-2.318156,0.143484,0.924466,1.479000,0.003509,0.003509,-0.003509,0.003509,0.003509,-0.003509,0.032952,-0.009183,0.011614,-0.027820,0.058178,0.026832,-0.025929,0.000000,0.000000,-0.000000,0.000000,0.000000,-0.000000,-0.539520,11.341802,0.501629,-6.178464,-1.235760,-3.368689,-0.337328,0.000000,0.000000,0.000000,0.000000,0.000000,0.000000
1660320837876039981,0.087052,0.172278,-3.112436,-2.318819,0.144713,0.925112,1.478342,0.003509,0.003509,-0.003509,0.003509,0.003509,-0.003509,0.027820,-0.004187,0.012965,-0.015936,0.043884,0.023228,-0.030760,0.000000,0.000000,-0.000000,0.000000,0.000000,-0.000000,-0.076746,11.345171,0.896993,-6.510577,-1.361556,-3.364049,-0.307829,0.000000,0.000000,0.000000,0.000000,0.000000,0.000000
1660320837900744199,0.087505,0.172159,-3.112215,-2.319156,0.145466,0.925484,1.477806,0.003509,0.003509,-0.003509,0.003509,0.003509,-0.003509,0.011614,-0.006242,0.003871,-0.007023,0.022148,0.012553,-0.015380,0.000000,0.000000,-0.000000,0.000000,0.000000,-0.000000,-0.046720,11.088245,0.858677,-6.229204,-1.369642,-3.257929,-0.291981,0.000000,0.000000,0.000000,0.000000,0.000000,0.000000
1660320837925696849,0.087758,0.171990,-3.112121,-2.319325,0.145960,0.925682,1.477558,0.003509,0.003509,-0.003509,0.003509,0.003509,-0.003509,0.012965,-0.004291,0.003973,-0.008188,0.016775,0.005554,-0.007087,0.000000,0.000000,-0.000000,0.000000,0.000000,-0.000000,-0.201419,11.363791,0.804175,-6.231288,-1.348314,-3.343000,-0.290183,0.000000,0.000000,0.000000,0.000000,0.000000,0.000000
1660320837950711011,0.087951,0.171934,-3.112033,-2.319477,0.146317,0.925780,1.477420,0.003509,0.003509,-0.003509,0.003509,0.003509,-0.003509,0.004502,-0.001277,0.002649,-0.004036,0.011587,0.002252,-0.003939,0.000000,0.000000,-0.000000,0.000000,0.000000,-0.000000,-0.567925,11.569309,0.428776,-6.192677,-1.229782,-3.311102,-0.301865,0.000000,0.000000,0.000000,0.000000,0.000000,0.000000
1660320837975651979,0.088057,0.171913,-3.111994,-2.319526,0.146450,0.925811,1.477344,0.003509,0.003509,-0.003509,0.003509,0.003509,-0.003509,0.004772,-0.000683,0.001144,-0.000830,0.003624,0.001204,-0.002534,0.000000,0.000000,-0.000000,0.000000,0.000000,-0.000000,-0.410967,11.908257,0.593199,-6.283344,-1.254000,-3.393901,-0.266516,0.000000,0.000000,0.000000,0.000000,0.000000,0.000000
1660320838000709772,0.088153,0.171893,-3.111976,-2.319536,0.146512,0.925840,1.477259,0.003509,0.003509,-0.003509,0.003509,0.003509,-0.003509,0.001921,-0.000833,0.000629,-0.000437,0.002080,0.001204,-0.003926,0.000000,0.000000,-0.000000,0.000000,0.000000,-0.000000,-0.077679,11.692836,0.866092,-6.135279,-1.337631,-3.350211,-0.289529,0.000000,0.000000,0.000000,0.000000,0.000000,0.000000
1660320838025709152,0.088169,0.171876,-3.111971,-2.319544,0.146534,0.925853,1.477228,0.003509,0.003509,-0.003509,0.003509,0.003509,-0.003509,0.000266,-0.000658,0.000160,-0.000331,0.000986,0.000504,-0.000957,0.000000,0.000000,-0.000000,0.000000,0.000000,-0.000000,0.031211,11.698335,0.921355,-6.171927,-1.322734,-3.349740,-0.268686,0.000000,0.000000,0.000000,0.000000,0.000000,0.000000
1660320838050740480,0.088169,0.171860,-3.111971,-2.319547,0.146547,0.925859,1.477219,0.003509,0.003509,-0.003509,0.003509,0.003509,-0.003509,0.000000,-0.000628,0.000019,-0.000121,0.000563,0.000300,-0.000339,0.000000,0.000000,-0.000000,0.000000,0.000000,-0.000000,-0.208074,11.503700,0.750619,-6.286478,-1.304054,-3.352000,-0.280930,0.000000,0.000000,0.000000,0.000000,0.000000,0.000000
1660320838075700044,0.088168,0.171847,-3.111972,-2.319547,0.146560,0.925862,1.477217,0.003509,0.003509,-0.003509,0.003509,0.003509,-0.003509,-0.000035,-0.000531,-0.000035,-0.000046,0.000536,0.000177,-0.000109,0.000000,0.000000,-0.000000,0.000000,0.000000,-0.000000,-0.525711,11.496986,0.447566,-6.360233,-1.212692,-3.338526,-0.275916,0.000000,0.000000,0.000000,0.000000,0.000000,0.000000
1660320838100755929,0.088166,0.171832,-3.111972,-2.319547,0.146562,0.925862,1.477217,0.003509,0.003509,-0.003509,0.003509,0.003509,-0.003509,-0.000050,-0.000607,-0.000033,0.000000,0.000290,0.000087,-0.000024,0.000000,0.000000,-0.000000,0.000000,0.000000,-0.000000,-0.316857,11.274567,0.609189,-6.292513,-1.245492,-3.299675,-0.281970,0.000000,0.000000,0.000000,0.000000,0.000000,0.000000
1660320838125809669,0.088163,0.171821,-3.111973,-2.319546,0.146559,0.925861,1.477218,0.003509,0.003509,-0.003509,0.003509,0.003509,-0.003509,-0.000074,-0.000454,-0.000027,0.000012,0.000018,0.000017,0.000018,0.000000,0.000000,-0.000000,0.000000,0.000000,-0.000000,-0.021269,11.451827,0.903509,-6.310935,-1.316753,-3.337088,-0.286413,0.000000,0.000000,0.000000,0.000000,0.000000,0.000000
1660320838150767803,0.088158,0.171817,-3.111974,-2.319545,0.146556,0.925860,1.477218,0.003509,0.003509,-0.003509,0.003509,0.003509,-0.003509,-0.000129,-0.000223,-0.000030,0.000023,-0.000069,-0.000014,0.000016,0.000000,0.000000,-0.000000,0.000000,0.000000,-0.000000,-0.060682,11.740052,0.839439,-6.216319,-1.309597,-3.333228,-0.295989,0.000000,0.000000,0.000000,0.000000,0.000000,0.000000
1660320838175739765,0.088147,0.171813,-3.111977,-2.319545,0.146554,0.925858,1.477219,0.003509,0.003509,-0.003509,0.003509,0.003509,-0.003509,-0.000269,-0.000160,-0.000049,0.000029,-0.000095,-0.000054,0.000023,0.000000,0.000000,-0.000000,0.000000,0.000000,-0.000000,-0.303026,11.673038,0.693172,-6.292275,-1.268983,-3.346603,-0.302616,0.000000,0.000000,0.000000,0.000000,0.000000,0.000000
1660320838200785160,0.088131,0.171808,-3.111981,-2.319544,0.146553,0.925857,1.477221,0.003509,0.003509,-0.003509,0.003509,0.003509,-0.003509,-0.000631,-0.000173,-0.000082,0.000037,-0.000083,-0.000058,0.000041,0.000000,0.000000,-0.000000,0.000000,0.000000,-0.000000,-0.541759,11.606701,0.413456,-6.231804,-1.199304,-3.330904,-0.305129,0.000000,0.000000,0.000000,0.000000,0.000000,0.000000
1660320838225805282,0.088114,0.171804,-3.111983,-2.319542,0.146548,0.925854,1.477222,0.003509,0.003509,-0.003509,0.003509,0.003509,-0.003509,-0.000707,-0.000181,-0.000101,0.000048,-0.000114,-0.000077,0.000037,0.000000,0.000000,-0.000000,0.000000,0.000000,-0.000000,-0.253446,11.648788,0.691698,-6.276867,-1.252496,-3.335901,-0.306362,0.000000,0.000000,0.000000,0.000000,0.000000,0.000000
1660320838250652790,0.088095,0.171800,-3.111984,-2.319540,0.146539,0.925851,1.477225,0.003509,0.003509,-0.003509,0.003509,0.003509,-0.003509,-0.000796,-0.000164,-0.000095,0.000058,-0.000180,-0.000095,0.000066,0.000000,0.000000,-0.000000,0.000000,0.000000,-0.000000,0.110580,11.664860,1.011793,-6.311925,-1.336051,-3.352849,-0.288793,0.000000,0.000000,0.000000,0.000000,0.000000,0.000000
1660320838275638580,0.088060,0.171797,-3.111986,-2.319537,0.146535,0.925850,1.477226,0.003509,0.003509,-0.003509,0.003509,0.003509,-0.003509,-0.001689,-0.000159,-0.000090,0.000079,-0.000191,-0.000074,0.000066,0.000000,0.000000,-0.000000,0.000000,0.000000,-0.000000,0.089785,11.577905,0.915084,-6.338089,-1.323194,-3.328439,-0.282178,0.000000,0.000000,0.000000,0.000000,0.000000,0.000000
1660320838300705909,0.087997,0.171789,-3.111991,-2.319534,0.146532,0.925849,1.477228,0.003509,0.003509,-0.003509,0.003509,0.003509,-0.003509,-0.002896,-0.000184,-0.000101,0.000095,-0.000209,-0.000074,0.000066,0.000000,0.000000,-0.000000,0.000000,0.000000,-0.000000,-0.220151,11.348222,0.692322,-6.300568,-1.266144,-3.295227,-0.321054,0.000000,0.000000,0.000000,0.000000,0.000000,0.000000
1660320838325764179,0.087944,0.171785,-3.111998,-2.319532,0.146532,0.925846,1.477230,0.003509,0.003509,-0.003509,0.003509,0.003509,-0.003509,-0.001510,-0.000189,-0.000146,0.000101,-0.000151,-0.000074,0.000074,0.000000,0.000000,-0.000000,0.000000,0.000000,-0.000000,-0.507071,11.519197,0.426818,-6.436904,-1.184193,-3.356111,-0.290226,0.000000,0.000000,0.000000,0.000000,0.000000,0.000000
1660320838350846290,0.087922,0.171782,-3.112001,-2.319528,0.146528,0.925845,1.477231,0.003509,0.003509,-0.003509,0.003509,0.003509,-0.003509,-0.000673,-0.000190,-0.000173,0.000114,-0.000114,-0.000056,0.000058,0.000000,0.000000,-0.000000,0.000000,0.000000,-0.000000,-0.318708,11.408981,0.635374,-6.277936,-1.246505,-3.276314,-0.306079,0.000000,0.000000,0.000000,0.000000,0.000000,0.000000
1660320838375805377,0.087914,0.171781,-3.112001,-2.319524,0.146523,0.925842,1.477232,0.003509,0.003509,-0.003509,0.003509,0.003509,-0.003509,-0.000303,-0.000155,-0.000159,0.000127,-0.000122,-0.000074,0.000066,0.000000,0.000000,-0.000000,0.000000,0.000000,-0.000000,-0.081758,11.676859,0.827168,-6.320652,-1.295180,-3.353901,-0.307672,0.000000,0.000000,0.000000,0.000000,0.000000,0.000000
1660320838401119470,0.087907,0.171780,-3.112004,-2.319521,0.146521,0.925840,1.477233,0.003509,0.003509,-0.003509,0.003509,0.003509,-0.003509,-0.000272,-0.000095,-0.000135,0.000127,-0.000114,-0.000085,0.000058,0.000000,0.000000,-0.000000,0.000000,0.000000,-0.000000,-0.093749,11.670401,0.821075,-6.250152,-1.280741,-3.325830,-0.313993,0.000000,0.000000,0.000000,0.000000,0.000000,0.000000
1660320838425674915,0.087899,0.171779,-3.112007,-2.319517,0.146520,0.925840,1.477234,0.003509,0.003509,-0.003509,0.003509,0.003509,-0.003509,-0.000308,-0.000058,-0.000098,0.000146,-0.000122,-0.000058,0.000048,0.000000,0.000000,-0.000000,0.000000,0.000000,-0.000000,-0.180447,11.651087,0.791689,-6.299922,-1.275442,-3.337336,-0.285048,0.000000,0.000000,0.000000,0.000000,0.000000,0.000000
1660320838450732946,0.087891,0.171779,-3.112012,-2.319514,0.146520,0.925839,1.477235,0.003509,0.003509,-0.003509,0.003509,0.003509,-0.003509,-0.000322,-0.000032,-0.000114,0.000138,-0.000085,-0.000066,0.000048,0.000000,0.000000,-0.000000,0.000000,0.000000,-0.000000,-0.251586,11.719235,0.661926,-6.245159,-1.233446,-3.332210,-0.312771,0.000000,0.000000,0.000000,0.000000,0.000000,0.000000
1660320838475678920,0.087887,0.171778,-3.112014,-2.319511,0.146517,0.925839,1.477236,0.003509,0.003509,-0.003509,0.003509,0.003509,-0.003509,-0.000246,-0.000026,-0.000125,0.000138,-0.000056,-0.000048,0.000037,0.000000,0.000000,-0.000000,0.000000,0.000000,-0.000000,-0.004181,11.393390,0.878603,-6.385716,-1.284840,-3.338712,-0.287272,0.000000,0.000000,0.000000,0.000000,0.000000,0.000000
1660320838500748395,0.087885,0.171778,-3.112016,-2.319507,0.146515,0.925839,1.477236,0.003509,0.003509,-0.003509,0.003509,0.003509,-0.003509,-0.000162,-0.000024,-0.000114,0.000146,-0.000066,-0.000019,0.000029,0.000000,0.000000,-0.000000,0.000000,0.000000,-0.000000,0.026929,11.674205,0.937332,-6.351449,-1.317672,-3.335849,-0.311979,0.000000,0.000000,0.000000,0.000000,0.000000,0.000000
1660320838525740623,0.087880,0.171777,-3.112021,-2.319505,0.146515,0.925838,1.477237,0.003509,0.003509,-0.003509,0.003509,0.003509,-0.003509,-0.000152,-0.000019,-0.000132,0.000122,-0.000048,-0.000029,0.000026,0.000000,0.000000,-0.000000,0.000000,0.000000,-0.000000,-0.261746,11.393352,0.623226,-6.508077,-1.243437,-3.344315,-0.304769,0.000000,0.000000,0.000000,0.000000,0.000000,0.000000
1660320838550783634,0.087870,0.171776,-3.112029,-2.319499,0.146516,0.925839,1.477237,0.003509,0.003509,-0.003509,0.003509,0.003509,-0.003509,-0.000209,-0.000037,-0.000172,0.000156,-0.000037,0.000000,0.000019,0.000000,0.000000,-0.000000,0.000000,0.000000,-0.000000,-0.549607,11.268554,0.436910,-6.172823,-1.199309,-3.257959,-0.311670,0.000000,0.000000,0.000000,0.000000,0.000000,0.000000
1660320838575757741,0.087865,0.171776,-3.112034,-2.319497,0.146516,0.925837,1.477238,0.003509,0.003509,-0.003509,0.003509,0.003509,-0.003509,-0.000294,-0.000019,-0.000269,0.000138,-0.000011,-0.000019,0.000019,0.000000,0.000000,-0.000000,0.000000,0.000000,-0.000000,-0.407392,11.749957,0.556407,-6.469592,-1.200676,-3.393638,-0.309737,0.000000,0.000000,0.000000,0.000000,0.000000,0.000000
1660320838600707054,0.087865,0.171776,-3.112034,-2.319493,0.146514,0.925838,1.477238,0.003509,0.003509,-0.003509,0.003509,0.003509,-0.003509,-0.000159,-0.000019,-0.000174,0.000132,-0.000011,-0.000011,0.000019,0.000000,0.000000,-0.000000,0.000000,0.000000,-0.000000,0.053748,11.555540,0.958066,-6.317534,-1.326835,-3.319993,-0.294868,0.000000,0.000000,0.000000,0.000000,0.000000,0.000000
1660320838625756263,0.087864,0.171776,-3.112035,-2.319487,0.146513,0.925838,1.477238,0.003509,0.003509,-0.003509,0.003509,0.003509,-0.003509,-0.000049,-0.000013,-0.000075,0.000182,-0.000019,0.000000,0.000011,0.000000,0.000000,-0.000000,0.000000,0.000000,-0.000000,0.176128,11.583312,1.008613,-6.167073,-1.340997,-3.272826,-0.280759,0.000000,0.000000,0.000000,0.000000,0.000000,0.000000
1660320838650824546,0.087864,0.171776,-3.112037,-2.319485,0.146513,0.925837,1.477238,0.003509,0.003509,-0.003509,0.003509,0.003509,-0.003509,-0.000018,0.000005,-0.000039,0.000132,-0.000029,-0.000019,0.000011,0.000000,0.000000,-0.000000,0.000000,0.000000,-0.000000,-0.086604,11.692555,0.835045,-6.515496,-1.284001,-3.383400,-0.311833,0.000000,0.000000,0.000000,0.000000,0.000000,0.000000
1660320838675751447,0.087861,0.171776,-3.112042,-2.319480,0.146513,0.925838,1.477238,0.003509,0.003509,-0.003509,0.003509,0.003509,-0.003509,-0.000044,0.000000,-0.000073,0.000164,-0.000029,0.000011,0.000000,0.000000,0.000000,-0.000000,0.000000,0.000000,-0.000000,-0.347595,11.644464,0.624630,-6.163443,-1.230676,-3.275946,-0.289753,0.000000,0.000000,0.000000,0.000000,0.000000,0.000000
1660320838700690507,0.087859,0.171776,-3.112046,-2.319479,0.146514,0.925837,1.477238,0.003509,0.003509,-0.003509,0.003509,0.003509,-0.003509,-0.000057,0.000000,-0.000114,0.000143,0.000000,-0.000011,0.000000,0.000000,0.000000,-0.000000,0.000000,0.000000,-0.000000,-0.256885,11.519882,0.634514,-6.470286,-1.232653,-3.350803,-0.299112,0.000000,0.000000,0.000000,0.000000,0.000000,0.000000
1660320838725790262,0.087858,0.171776,-3.112046,-2.319474,0.146513,0.925838,1.477238,0.003509,0.003509,-0.003509,0.003509,0.003509,-0.003509,-0.000064,0.000000,-0.000114,0.000127,0.000000,0.000000,0.000000,0.000000,0.000000,-0.000000,0.000000,0.000000,-0.000000,-0.118966,11.384478,0.821474,-6.257433,-1.312330,-3.289109,-0.305723,0.000000,0.000000,0.000000,0.000000,0.000000,0.000000
1660320838750802993,0.087858,0.171776,-3.112049,-2.319471,0.146513,0.925837,1.477239,0.003509,0.003509,-0.003509,0.003509,0.003509,-0.003509,-0.000058,0.000000,-0.000119,0.000138,0.000000,0.000000,0.000011,0.000000,0.000000,-0.000000,0.000000,0.000000,-0.000000,-0.226641,11.660554,0.725029,-6.386221,-1.245635,-3.351885,-0.296458,0.000000,0.000000,0.000000,0.000000,0.000000,0.000000
1660320838775808095,0.087857,0.171777,-3.112051,-2.319469,0.146514,0.925837,1.477239,0.003509,0.003509,-0.003509,0.003509,0.003509,-0.003509,-0.000045,0.000005,-0.000095,0.000109,0.000011,-0.000011,0.000011,0.000000,0.000000,-0.000000,0.000000,0.000000,-0.000000,-0.295403,11.478488,0.643764,-6.396629,-1.242663,-3.325726,-0.293791,0.000000,0.000000,0.000000,0.000000,0.000000,0.000000
1660320838800773382,0.087856,0.171776,-3.112053,-2.319465,0.146514,0.925838,1.477239,0.003509,0.003509,-0.003509,0.003509,0.003509,-0.003509,-0.000032,0.000000,-0.000072,0.000140,0.000000,0.000011,0.000011,0.000000,0.000000,-0.000000,0.000000,0.000000,-0.000000,-0.268226,11.521535,0.657495,-6.172575,-1.233782,-3.295641,-0.298607,0.000000,0.000000,0.000000,0.000000,0.000000,0.000000
1660320838825793743,0.087855,0.171777,-3.112054,-2.319463,0.146514,0.925837,1.477239,0.003509,0.003509,-0.003509,0.003509,0.003509,-0.003509,-0.000027,0.000005,-0.000074,0.000114,0.000011,-0.000011,0.000011,0.000000,0.000000,-0.000000,0.000000,0.000000,-0.000000,0.002563,11.682247,0.875151,-6.465719,-1.282856,-3.394178,-0.304225,0.000000,0.000000,0.000000,0.000000,0.000000,0.000000
1660320838850790262,0.087855,0.171777,-3.112054,-2.319460,0.146513,0.925837,1.477239,0.003509,0.003509,-0.003509,0.003509,0.003509,-0.003509,-0.000024,0.000005,-0.000050,0.000114,0.000000,0.000000,0.000000,0.000000,0.000000,-0.000000,0.000000,0.000000,-0.000000,0.102108,11.532350,0.972587,-6.309345,-1.329488,-3.325053,-0.292493,0.000000,0.000000,0.000000,0.000000,0.000000,0.000000
1660320838875727176,0.087855,0.171777,-3.112056,-2.319458,0.146513,0.925837,1.477239,0.003509,0.003509,-0.003509,0.003509,0.003509,-0.003509,-0.000013,0.000000,-0.000045,0.000114,-0.000011,0.000000,0.000000,0.000000,0.000000,-0.000000,0.000000,0.000000,-0.000000,-0.149025,11.497734,0.748833,-6.269024,-1.273786,-3.298856,-0.309696,0.000000,0.000000,0.000000,0.000000,0.000000,0.000000
1660320838900701045,0.087854,0.171777,-3.112058,-2.319455,0.146513,0.925837,1.477239,0.003509,0.003509,-0.003509,0.003509,0.003509,-0.003509,-0.000019,0.000005,-0.000050,0.000095,-0.000011,-0.000011,0.000000,0.000000,0.000000,-0.000000,0.000000,0.000000,-0.000000,-0.363697,11.623572,0.636101,-6.423875,-1.231764,-3.344084,-0.291209,0.000000,0.000000,0.000000,0.000000,0.000000,0.000000
1660320838925739288,0.087853,0.171777,-3.112061,-2.319454,0.146514,0.925837,1.477239,0.003509,0.003509,-0.003509,0.003509,0.003509,-0.003509,-0.000026,0.000005,-0.000066,0.000093,0.000000,0.000000,0.000000,0.000000,0.000000,-0.000000,0.000000,0.000000,-0.000000,-0.345446,11.641593,0.588913,-6.272678,-1.226715,-3.310104,-0.299361,0.000000,0.000000,0.000000,0.000000,0.000000,0.000000
1660320838950747966,0.087852,0.171777,-3.112061,-2.319452,0.146514,0.925837,1.477239,0.003509,0.003509,-0.003509,0.003509,0.003509,-0.003509,-0.000032,0.000000,-0.000071,0.000082,0.000011,0.000000,0.000000,0.000000,0.000000,-0.000000,0.000000,0.000000,-0.000000,-0.121005,11.487896,0.797662,-6.403476,-1.278591,-3.322309,-0.306619,0.000000,0.000000,0.000000,0.000000,0.000000,0.000000
1660320838975748062,0.087852,0.171777,-3.112061,-2.319450,0.146513,0.925837,1.477239,0.003509,0.003509,-0.003509,0.003509,0.003509,-0.003509,-0.000032,0.000000,-0.000056,0.000080,0.000000,0.000000,0.000000,0.000000,0.000000,-0.000000,0.000000,0.000000,-0.000000,-0.049929,11.483734,0.878617,-6.295320,-1.321682,-3.333448,-0.307227,0.000000,0.000000,0.000000,0.000000,0.000000,0.000000
1660320839000959396,0.087852,0.171777,-3.112062,-2.319448,0.146513,0.925838,1.477239,0.003509,0.003509,-0.003509,0.003509,0.003509,-0.003509,-0.000019,0.000005,-0.000037,0.000069,0.000000,0.000011,0.000000,0.000000,0.000000,-0.000000,0.000000,0.000000,-0.000000,-0.211315,11.600849,0.680031,-6.396807,-1.240660,-3.324605,-0.296720,0.000000,0.000000,0.000000,0.000000,0.000000,0.000000
1660320839025747776,0.087852,0.171777,-3.112062,-2.319447,0.146514,0.925837,1.477239,0.003509,0.003509,-0.003509,0.003509,0.003509,-0.003509,-0.000008,0.000000,-0.000019,0.000063,0.000000,0.000000,0.000000,0.000000,0.000000,-0.000000,0.000000,0.000000,-0.000000,-0.272495,11.548889,0.685069,-6.417276,-1.237461,-3.321486,-0.291729,0.000000,0.000000,0.000000,0.000000,0.000000,0.000000
1660320839050786495,0.087851,0.171777,-3.112063,-2.319445,0.146514,0.925838,1.477239,0.003509,0.003509,-0.003509,0.003509,0.003509,-0.003509,-0.000008,0.000005,-0.000019,0.000069,0.000000,0.000011,0.000000,0.000000,0.000000,-0.000000,0.000000,0.000000,-0.000000,-0.170127,11.448537,0.736224,-6.232370,-1.270823,-3.289493,-0.289717,0.000000,0.000000,0.000000,0.000000,0.000000,0.000000
1660320839075656652,0.087851,0.171777,-3.112062,-2.319444,0.146514,0.925837,1.477239,0.003509,0.003509,-0.003509,0.003509,0.003509,-0.003509,-0.000008,0.000008,-0.000013,0.000058,0.000011,0.000000,0.000000,0.000000,0.000000,-0.000000,0.000000,0.000000,-0.000000,0.008628,11.640957,0.891409,-6.483999,-1.298305,-3.380108,-0.307138,0.000000,0.000000,0.000000,0.000000,0.000000,0.000000
1660320839100809574,0.087851,0.171777,-3.112062,-2.319442,0.146513,0.925838,1.477239,0.003509,0.003509,-0.003509,0.003509,0.003509,-0.003509,-0.000008,0.000005,-0.000008,0.000064,0.000000,0.000000,0.000000,0.000000,0.000000,-0.000000,0.000000,0.000000,-0.000000,-0.079595,11.642100,0.858946,-6.145619,-1.317926,-3.274143,-0.297495,0.000000,0.000000,0.000000,0.000000,0.000000,0.000000
1660320839125801801,0.087851,0.171777,-3.112064,-2.319442,0.146513,0.925837,1.477239,0.003509,0.003509,-0.003509,0.003509,0.003509,-0.003509,-0.000005,0.000005,-0.000011,0.000056,-0.000011,0.000000,0.000000,0.000000,0.000000,-0.000000,0.000000,0.000000,-0.000000,-0.296423,11.585192,0.624224,-6.394371,-1.225763,-3.338902,-0.312741,0.000000,0.000000,0.000000,0.000000,0.000000,0.000000
1660320839150882959,0.087851,0.171777,-3.112064,-2.319441,0.146513,0.925838,1.477239,0.003509,0.003509,-0.003509,0.003509,0.003509,-0.003509,-0.000005,0.000005,-0.000013,0.000040,-0.000011,0.000000,0.000000,0.000000,0.000000,-0.000000,0.000000,0.000000,-0.000000,-0.311259,11.496752,0.650429,-6.247890,-1.243007,-3.292972,-0.299586,0.000000,0.000000,0.000000,0.000000,0.000000,0.000000
1660320839175775527,0.087850,0.171777,-3.112064,-2.319440,0.146514,0.925837,1.477239,0.003509,0.003509,-0.003509,0.003509,0.003509,-0.003509,-0.000008,0.000000,-0.000019,0.000037,0.000000,0.000000,0.000000,0.000000,0.000000,-0.000000,0.000000,0.000000,-0.000000,-0.204869,11.506564,0.708644,-6.459174,-1.235366,-3.337774,-0.323291,0.000000,0.000000,0.000000,0.000000,0.000000,0.000000
1660320839200757265,0.087850,0.171777,-3.112064,-2.319439,0.146514,0.925837,1.477239,0.003509,0.003509,-0.003509,0.003509,0.003509,-0.003509,-0.000008,-0.000005,-0.000019,0.000026,0.000011,-0.000011,0.000000,0.000000,0.000000,-0.000000,0.000000,0.000000,-0.000000,-0.090891,11.409745,0.841864,-6.285425,-1.298282,-3.295683,-0.300643,0.000000,0.000000,0.000000,0.000000,0.000000,0.000000
1660320839225779533,0.087850,0.171777,-3.112064,-2.319439,0.146513,0.925837,1.477239,0.003509,0.003509,-0.003509,0.003509,0.003509,-0.003509,-0.000008,-0.000005,-0.000008,0.000026,0.000000,0.000000,0.000000,0.000000,0.000000,-0.000000,0.000000,0.000000,-0.000000,-0.142395,11.514385,0.780923,-6.385685,-1.270113,-3.301474,-0.314539,0.000000,0.000000,0.000000,0.000000,0.000000,0.000000
1660320839250726222,0.087850,0.171777,-3.112065,-2.319438,0.146513,0.925837,1.477239,0.003509,0.003509,-0.003509,0.003509,0.003509,-0.003509,-0.000005,0.000000,-0.000005,0.000024,0.000000,-0.000011,0.000000,0.000000,0.000000,-0.000000,0.000000,0.000000,-0.000000,-0.270089,11.625403,0.693456,-6.287761,-1.235335,-3.325538,-0.317043,0.000000,0.000000,0.000000,0.000000,0.000000,0.000000
1660320839275698661,0.087850,0.171777,-3.112065,-2.319438,0.146513,0.925837,1.477239,0.003509,0.003509,-0.003509,0.003509,0.003509,-0.003509,0.000000,0.000000,-0.000005,0.000021,-0.000011,0.000000,0.000000,0.000000,0.000000,-0.000000,0.000000,0.000000,-0.000000,-0.178575,11.605379,0.785749,-6.295761,-1.286458,-3.297204,-0.313195,0.000000,0.000000,0.000000,0.000000,0.000000,0.000000
1660320839300683259,0.087850,0.171778,-3.112064,-2.319438,0.146513,0.925837,1.477239,0.003509,0.003509,-0.003509,0.003509,0.003509,-0.003509,0.000000,0.000008,0.000000,0.000019,-0.000011,0.000000,0.000000,0.000000,0.000000,-0.000000,0.000000,0.000000,-0.000000,-0.045825,11.635628,0.840443,-6.350464,-1.286300,-3.344223,-0.301729,0.000000,0.000000,0.000000,0.000000,0.000000,0.000000
1660320839325748443,0.087850,0.171778,-3.112064,-2.319436,0.146513,0.925837,1.477239,0.003509,0.003509,-0.003509,0.003509,0.003509,-0.003509,0.000000,0.000008,0.000000,0.000024,0.000000,0.000000,0.000000,0.000000,0.000000,-0.000000,0.000000,0.000000,-0.000000,-0.082519,11.655786,0.830475,-6.301837,-1.294442,-3.333923,-0.298551,0.000000,0.000000,0.000000,0.000000,0.000000,0.000000
1660320839350803613,0.087850,0.171778,-3.112065,-2.319436,0.146513,0.925837,1.477239,0.003509,0.003509,-0.003509,0.003509,0.003509,-0.003509,0.000000,0.000005,0.000000,0.000019,0.000000,0.000000,0.000000,0.000000,0.000000,-0.000000,0.000000,0.000000,-0.000000,-0.265048,11.536452,0.693212,-6.367739,-1.251318,-3.323005,-0.312189,0.000000,0.000000,0.000000,0.000000,0.000000,0.000000
1660320839375797986,0.087850,0.171777,-3.112065,-2.319436,0.146514,0.925838,1.477239,0.003509,0.003509,-0.003509,0.003509,0.003509,-0.003509,-0.000005,0.000000,-0.000005,0.000019,0.000011,0.000011,0.000000,0.000000,0.000000,-0.000000,0.000000,0.000000,-0.000000,-0.401363,11.452010,0.544003,-6.337813,-1.209762,-3.317322,-0.298412,0.000000,0.000000,0.000000,0.000000,0.000000,0.000000
1660320839400906562,0.087850,0.171777,-3.112065,-2.319436,0.146514,0.925837,1.477239,0.003509,0.003509,-0.003509,0.003509,0.003509,-0.003509,-0.000005,-0.000005,-0.000011,0.000019,0.000011,0.000000,0.000000,0.000000,0.000000,-0.000000,0.000000,0.000000,-0.000000,-0.222042,11.384928,0.688711,-6.335285,-1.242798,-3.305098,-0.297682,0.000000,0.000000,0.000000,0.000000,0.000000,0.000000
1660320839425730705,0.087850,0.171778,-3.112065,-2.319435,0.146514,0.925837,1.477239,0.003509,0.003509,-0.003509,0.003509,0.003509,-0.003509,-0.000005,0.000000,-0.000011,0.000013,0.000011,0.000000,0.000000,0.000000,0.000000,-0.000000,0.000000,0.000000,-0.000000,-0.026108,11.547520,0.834072,-6.507781,-1.285366,-3.355729,-0.296137,0.000000,0.000000,0.000000,0.000000,0.000000,0.000000
1660320839450657844,0.087850,0.171778,-3.112065,-2.319435,0.146513,0.925838,1.477239,0.003509,0.003509,-0.003509,0.003509,0.003509,-0.003509,-0.000005,0.000000,0.000000,0.000016,0.000000,0.000011,0.000000,0.000000,0.000000,-0.000000,0.000000,0.000000,-0.000000,-0.019614,11.563750,0.920518,-6.165897,-1.316228,-3.293740,-0.295608,0.000000,0.000000,0.000000,0.000000,0.000000,0.000000
1660320839475665807,0.087850,0.171778,-3.112065,-2.319434,0.146513,0.925837,1.477239,0.003509,0.003509,-0.003509,0.003509,0.003509,-0.003509,0.000000,0.000008,0.000000,0.000019,-0.000011,-0.000011,0.000000,0.000000,0.000000,-0.000000,0.000000,0.000000,-0.000000,-0.143062,11.753284,0.826332,-6.376967,-1.274596,-3.350889,-0.294055,0.000000,0.000000,0.000000,0.000000,0.000000,0.000000
1660320839500684976,0.087850,0.171778,-3.112065,-2.319434,0.146514,0.925837,1.477239,0.003509,0.003509,-0.003509,0.003509,0.003509,-0.003509,0.000000,0.000008,0.000000,0.000019,0.000000,0.000000,0.000000,0.000000,0.000000,-0.000000,0.000000,0.000000,-0.000000,-0.281783,11.692670,0.651964,-6.311670,-1.247324,-3.324008,-0.300592,0.000000,0.000000,0.000000,0.000000,0.000000,0.000000
1660320839525622844,0.087850,0.171778,-3.112065,-2.319433,0.146514,0.925838,1.477239,0.003509,0.003509,-0.003509,0.003509,0.003509,-0.003509,0.000000,0.000000,0.000000,0.000019,0.000000,0.000011,0.000000,0.000000,0.000000,-0.000000,0.000000,0.000000,-0.000000,-0.219226,11.310627,0.727545,-6.295909,-1.245743,-3.288664,-0.316351,0.000000,0.000000,0.000000,0.000000,0.000000,0.000000
1660320839550674915,0.087850,0.171778,-3.112065,-2.319433,0.146514,0.925837,1.477239,0.003509,0.003509,-0.003509,0.003509,0.003509,-0.003509,0.000000,0.000000,-0.000005,0.000016,0.000011,-0.000011,0.000000,0.000000,0.000000,-0.000000,0.000000,0.000000,-0.000000,-0.174867,11.543802,0.733360,-6.488635,-1.245308,-3.359931,-0.295541,0.000000,0.000000,0.000000,0.000000,0.000000,0.000000
1660320839575665235,0.087850,0.171778,-3.112065,-2.319433,0.146514,0.925837,1.477239,0.003509,0.003509,-0.003509,0.003509,0.003509,-0.003509,0.000000,-0.000005,0.000000,0.000011,0.000011,0.000000,0.000000,0.000000,0.000000,-0.000000,0.000000,0.000000,-0.000000,-0.196943,11.486990,0.779484,-6.245843,-1.272534,-3.301357,-0.309418,0.000000,0.000000,0.000000,0.000000,0.000000,0.000000
1660320839600661277,0.087850,0.171778,-3.112065,-2.319433,0.146514,0.925837,1.477239,0.003509,0.003509,-0.003509,0.003509,0.003509,-0.003509,0.000000,-0.000005,0.000000,0.000008,0.000000,0.000000,0.000000,0.000000,0.000000,-0.000000,0.000000,0.000000,-0.000000,-0.253083,11.578076,0.685916,-6.373359,-1.238149,-3.341408,-0.297763,0.000000,0.000000,0.000000,0.000000,0.000000,0.000000
1660320839625763416,0.087850,0.171778,-3.112065,-2.319433,0.146514,0.925837,1.477239,0.003509,0.003509,-0.003509,0.003509,0.003509,-0.003509,0.000000,0.000005,0.000000,0.000003,0.000000,-0.000011,0.000000,0.000000,0.000000,-0.000000,0.000000,0.000000,-0.000000,-0.226152,11.548322,0.696484,-6.409440,-1.250458,-3.324774,-0.308738,0.000000,0.000000,0.000000,0.000000,0.000000,0.000000
1660320839650803565,0.087850,0.171778,-3.112065,-2.319433,0.146513,0.925838,1.477239,0.003509,0.003509,-0.003509,0.003509,0.003509,-0.003509,0.000000,0.000000,0.000000,0.000003,-0.000011,0.000011,0.000000,0.000000,0.000000,-0.000000,0.000000,0.000000,-0.000000,-0.095808,11.400636,0.820019,-6.266923,-1.300020,-3.287999,-0.301048,0.000000,0.000000,0.000000,0.000000,0.000000,0.000000
1660320839675751686,0.087850,0.171778,-3.112065,-2.319433,0.146513,0.925837,1.477239,0.003509,0.003509,-0.003509,0.003509,0.003509,-0.003509,0.000000,0.000000,0.000000,0.000003,-0.000011,0.000000,0.000000,0.000000,0.000000,-0.000000,0.000000,0.000000,-0.000000,-0.058249,11.493492,0.826978,-6.417192,-1.275536,-3.318877,-0.307513,0.000000,0.000000,0.000000,0.000000,0.000000,0.000000
1660320839700853347,0.087850,0.171778,-3.112065,-2.319433,0.146513,0.925837,1.477239,0.003509,0.003509,-0.003509,0.003509,0.003509,-0.003509,0.000000,0.000005,0.000000,0.000000,-0.000011,0.000000,0.000000,0.000000,0.000000,-0.000000,0.000000,0.000000,-0.000000,-0.155607,11.686501,0.811807,-6.276485,-1.284877,-3.318158,-0.301601,0.000000,0.000000,0.000000,0.000000,0.000000,0.000000
1660320839725795745,0.087850,0.171779,-3.112065,-2.319432,0.146513,0.925837,1.477239,0.003509,0.003509,-0.003509,0.003509,0.003509,-0.003509,0.000000,0.000005,0.000000,0.000005,-0.000011,0.000000,0.000000,0.000000,0.000000,-0.000000,0.000000,0.000000,-0.000000,-0.311575,11.786098,0.704149,-6.244702,-1.248457,-3.338177,-0.304296,0.000000,0.000000,0.000000,0.000000,0.000000,0.000000
1660320839750746965,0.087850,0.171778,-3.112065,-2.319433,0.146514,0.925837,1.477239,0.003509,0.003509,-0.003509,0.003509,0.003509,-0.003509,0.000000,0.000005,0.000000,0.000000,0.000011,-0.000011,0.000000,0.000000,0.000000,-0.000000,0.000000,0.000000,-0.000000,-0.284279,11.387822,0.665258,-6.516077,-1.242718,-3.342927,-0.303503,0.000000,0.000000,0.000000,0.000000,0.000000,0.000000
1660320839775762796,0.087850,0.171778,-3.112065,-2.319432,0.146514,0.925838,1.477239,0.003509,0.003509,-0.003509,0.003509,0.003509,-0.003509,0.000000,0.000000,0.000000,0.000011,0.000011,0.000011,0.000000,0.000000,0.000000,-0.000000,0.000000,0.000000,-0.000000,-0.214320,11.323600,0.677902,-6.098124,-1.256717,-3.226516,-0.298374,0.000000,0.000000,0.000000,0.000000,0.000000,0.000000
1660320839800724029,0.087850,0.171778,-3.112065,-2.319432,0.146514,0.925837,1.477239,0.003509,0.003509,-0.003509,0.003509,0.003509,-0.003509,0.000000,0.000000,0.000000,0.000005,0.000011,0.000000,0.000000,0.000000,0.000000,-0.000000,0.000000,0.000000,-0.000000,-0.075813,11.713563,0.861534,-6.652561,-1.275866,-3.431004,-0.298687,0.000000,0.000000,0.000000,0.000000,0.000000,0.000000
1660320839825706243,0.087850,0.171778,-3.112065,-2.319432,0.146513,0.925838,1.477239,0.003509,0.003509,-0.003509,0.003509,0.003509,-0.003509,0.000000,-0.000005,0.000005,0.000005,0.000000,0.000011,0.000000,0.000000,0.000000,-0.000000,0.000000,0.000000,-0.000000,-0.075273,11.552149,0.871808,-6.078995,-1.319080,-3.275334,-0.306655,0.000000,0.000000,0.000000,0.000000,0.000000,0.000000
1660320839850722551,0.087850,0.171778,-3.112065,-2.319432,0.146513,0.925837,1.477239,0.003509,0.003509,-0.003509,0.003509,0.003509,-0.003509,0.000000,0.000000,0.000000,0.000011,-0.000011,0.000000,0.000000,0.000000,0.000000,-0.000000,0.000000,0.000000,-0.000000,-0.200745,11.671255,0.661579,-6.404664,-1.240123,-3.352366,-0.302328,0.000000,0.000000,0.000000,0.000000,0.000000,0.000000
1660320839875724792,0.087850,0.171778,-3.112065,-2.319432,0.146513,0.925837,1.477239,0.003509,0.003509,-0.003509,0.003509,0.003509,-0.003509,0.000000,0.000005,0.000000,0.000000,-0.000011,-0.000011,0.000000,0.000000,0.000000,-0.000000,0.000000,0.000000,-0.000000,-0.215042,11.433206,0.728881,-6.374029,-1.260573,-3.328203,-0.315194,0.000000,0.000000,0.000000,0.000000,0.000000,0.000000
1660320839900678396,0.087850,0.171778,-3.112065,-2.319432,0.146513,0.925838,1.477239,0.003509,0.003509,-0.003509,0.003509,0.003509,-0.003509,0.000000,0.000000,0.000000,0.000005,-0.000011,0.000011,0.000000,0.000000,0.000000,-0.000000,0.000000,0.000000,-0.000000,-0.205707,11.464596,0.711201,-6.228343,-1.228878,-3.262563,-0.299910,0.000000,0.000000,0.000000,0.000000,0.000000,0.000000
1660320839925646543,0.087850,0.171778,-3.112065,-2.319432,0.146514,0.925837,1.477239,0.003509,0.003509,-0.003509,0.003509,0.003509,-0.003509,0.000000,0.000000,-0.000005,0.000000,0.000011,-0.000011,0.000000,0.000000,0.000000,-0.000000,0.000000,0.000000,-0.000000,-0.092945,11.640277,0.832208,-6.502396,-1.281152,-3.363901,-0.306697,0.000000,0.000000,0.000000,0.000000,0.000000,0.000000
1660320839950717449,0.087850,0.171778,-3.112065,-2.319431,0.146513,0.925837,1.477239,0.003509,0.003509,-0.003509,0.003509,0.003509,-0.003509,0.000000,0.000000,0.000000,0.000005,0.000000,0.000000,0.000000,0.000000,0.000000,-0.000000,0.000000,0.000000,-0.000000,-0.145888,11.635926,0.850584,-6.194316,-1.294844,-3.297379,-0.313013,0.000000,0.000000,0.000000,0.000000,0.000000,0.000000
1660320839975776672,0.087850,0.171778,-3.112065,-2.319432,0.146514,0.925837,1.477239,0.003509,0.003509,-0.003509,0.003509,0.003509,-0.003509,0.000000,0.000000,0.000000,0.000000,0.000011,0.000000,0.000000,0.000000,0.000000,-0.000000,0.000000,0.000000,-0.000000,-0.210986,11.534950,0.680773,-6.449887,-1.226668,-3.326689,-0.315638,0.000000,0.000000,0.000000,0.000000,0.000000,0.000000
1660320840000703811,0.087850,0.171778,-3.112065,-2.319431,0.146514,0.925838,1.477239,0.003509,0.003509,-0.003509,0.003509,0.003509,-0.003509,0.000000,0.000000,0.000000,0.000005,0.000011,0.000000,0.000000,0.000000,0.000000,-0.000000,0.000000,0.000000,-0.000000,-0.218177,11.405582,0.724779,-6.300530,-1.270673,-3.289970,-0.303348,0.000000,0.000000,0.000000,0.000000,0.000000,0.000000
1660320840025646448,0.087850,0.171778,-3.112065,-2.319431,0.146514,0.925837,1.477239,0.003509,0.003509,-0.003509,0.003509,0.003509,-0.003509,0.000000,0.000000,0.000000,0.000005,0.000000,0.000000,0.000000,0.000000,0.000000,-0.000000,0.000000,0.000000,-0.000000,-0.290430,11.625482,0.636989,-6.293674,-1.225778,-3.330073,-0.306245,0.000000,0.000000,0.000000,0.000000,0.000000,0.000000
1660320840050771713,0.087850,0.171779,-3.112065,-2.319432,0.146514,0.925837,1.477239,0.003509,0.003509,-0.003509,0.003509,0.003509,-0.003509,0.000000,0.000005,0.000000,-0.000005,0.000011,0.000000,0.000000,0.000000,0.000000,-0.000000,0.000000,0.000000,-0.000000,-0.140769,11.676100,0.808382,-6.478693,-1.269290,-3.376848,-0.319075,0.000000,0.000000,0.000000,0.000000,0.000000,0.000000
1660320840075749874,0.087850,0.171778,-3.112065,-2.319431,0.146513,0.925838,1.477239,0.003509,0.003509,-0.003509,0.003509,0.003509,-0.003509,0.000000,0.000000,0.000005,0.000005,-0.000011,0.000011,0.000000,0.000000,0.000000,-0.000000,0.000000,0.000000,-0.000000,-0.073636,11.387403,0.843609,-6.205313,-1.304067,-3.273510,-0.307602,0.000000,0.000000,0.000000,0.000000,0.000000,0.000000
1660320840100690841,0.087850,0.171778,-3.112065,-2.319432,0.146513,0.925837,1.477239,0.003509,0.003509,-0.003509,0.003509,0.003509,-0.003509,0.000000,0.000000,0.000000,-0.000005,-0.000011,-0.000011,0.000000,0.000000,0.000000,-0.000000,0.000000,0.000000,-0.000000,-0.199376,11.462388,0.739656,-6.435741,-1.255455,-3.329735,-0.292372,0.000000,0.000000,0.000000,0.000000,0.000000,0.000000
